; generated by Slic3r 1.3.0 on 2019-09-02 at 16:39:30

; external perimeters extrusion width = 0.44mm (3.38mm^3/s)
; perimeters extrusion width = 0.48mm (7.54mm^3/s)
; infill extrusion width = 0.48mm (10.05mm^3/s)
; solid infill extrusion width = 0.48mm (2.51mm^3/s)
; top infill extrusion width = 0.48mm (1.88mm^3/s)

M107
M104 S200 ; set temperature
G28 ; home all axes
G1 Z5 F5000 ; lift nozzle

; Filament gcode

M109 S200 ; set temperature and wait for it to be reached
G21 ; set units to millimeters
G90 ; use absolute coordinates
M82 ; use absolute distances for extrusion
G92 E0
G1 Z0.350 F7800.000
G1 E-2.00000 F2400.00000
G92 E0
G1 X27.752 Y23.069 F7800.000
G1 E2.00000 F2400.00000
G1 F1800
G1 X28.069 Y22.751 E2.04085
G1 X29.228 Y21.827 E2.17565
G1 X29.654 Y21.559 E2.22137
G1 X30.945 Y20.945 E2.35133
G1 X31.472 Y20.761 E2.40213
G1 X32.814 Y20.467 E2.52703
G1 X33.328 Y20.409 E2.57405
G1 X34.000 Y20.375 E2.63524
G1 X122.000 Y20.375 E10.63705
G1 X123.040 Y20.445 E10.73181
G1 X124.313 Y20.699 E10.84988
G1 X124.689 Y20.813 E10.88554
G1 X125.888 Y21.310 E11.00362
G1 X126.234 Y21.495 E11.03929
G1 X127.314 Y22.216 E11.15736
G1 X127.617 Y22.465 E11.19301
G1 X128.535 Y23.383 E11.31110
G1 X128.784 Y23.686 E11.34677
G1 X129.506 Y24.766 E11.46485
G1 X129.669 Y25.071 E11.49634
G1 X130.187 Y26.312 E11.61857
G1 X130.301 Y26.687 E11.65422
G1 X130.555 Y27.960 E11.77230
G1 X130.625 Y29.000 E11.86705
G1 X130.625 Y161.000 E23.86975
G1 X130.555 Y162.040 E23.96450
G1 X130.301 Y163.313 E24.08258
G1 X130.187 Y163.688 E24.11823
G1 X129.690 Y164.888 E24.23630
G1 X129.506 Y165.234 E24.27198
G1 X128.784 Y166.314 E24.39009
G1 X128.535 Y166.617 E24.42574
G1 X127.617 Y167.535 E24.54381
G1 X127.314 Y167.784 E24.57946
G1 X126.234 Y168.505 E24.69753
G1 X125.888 Y168.690 E24.73318
G1 X124.689 Y169.187 E24.85127
G1 X124.313 Y169.301 E24.88692
G1 X123.039 Y169.555 E25.00505
G1 X122.000 Y169.625 E25.09977
G1 X34.000 Y169.625 E33.10158
G1 X33.320 Y169.590 E33.16346
G1 X32.814 Y169.533 E33.20977
G1 X31.473 Y169.239 E33.33466
G1 X30.945 Y169.055 E33.38550
G1 X29.656 Y168.442 E33.51525
G1 X29.228 Y168.173 E33.56118
G1 X28.069 Y167.248 E33.69606
G1 X27.749 Y166.929 E33.73715
G1 X26.827 Y165.772 E33.87171
G1 X26.558 Y165.344 E33.91764
G1 X25.945 Y164.055 E34.04739
G1 X25.761 Y163.526 E34.09837
G1 X25.467 Y162.186 E34.22310
G1 X25.409 Y161.672 E34.27014
G1 X25.375 Y161.000 E34.33131
G1 X25.375 Y29.000 E46.33402
G1 X25.409 Y28.327 E46.39529
G1 X25.467 Y27.814 E46.44223
G1 X25.762 Y26.471 E46.56725
G1 X25.945 Y25.945 E46.61794
G1 X26.593 Y24.600 E46.75363
G1 X26.827 Y24.228 E46.79358
G1 X27.714 Y23.116 E46.92302
G1 E44.92302 F2400.00000
G92 E0
G1 X120.448 Y159.045 F7800.000
G1 E2.00000 F2400.00000
G1 F1800
G1 X120.715 Y158.935 E2.02618
G1 X120.973 Y158.901 E2.04985
G1 X121.281 Y158.933 E2.07805
G1 X121.551 Y159.045 E2.10467
G1 X121.780 Y159.220 E2.13085
G1 X121.955 Y159.448 E2.15704
G1 X122.065 Y159.715 E2.18322
G1 X122.103 Y160.000 E2.20940
G1 X122.065 Y160.285 E2.23558
G1 X121.966 Y160.526 E2.25925
G1 X121.784 Y160.777 E2.28745
G1 X121.551 Y160.955 E2.31407
G1 X121.285 Y161.065 E2.34025
G1 X121.000 Y161.103 E2.36644
G1 X120.715 Y161.065 E2.39262
G1 X120.474 Y160.966 E2.41629
G1 X120.223 Y160.784 E2.44449
G1 X120.045 Y160.552 E2.47111
G1 X119.935 Y160.285 E2.49729
G1 X119.897 Y160.000 E2.52347
G1 X119.935 Y159.715 E2.54966
G1 X120.034 Y159.474 E2.57332
G1 X120.216 Y159.223 E2.60152
G1 X120.401 Y159.081 E2.62269
G1 X120.448 Y159.045 F7800.000
G1 E0.62269 F2400.00000
G92 E0
G1 X122.723 Y160.330 F7800.000
G1 E2.00000 F2400.00000
G1 F1800
G1 X123.025 Y160.390 E2.02798
G1 X123.025 Y160.952 E2.07908
G1 X123.001 Y161.199 E2.10165
G1 X122.953 Y161.356 E2.11659
G1 X122.842 Y161.575 E2.13886
G1 X122.722 Y161.722 E2.15613
G1 X122.567 Y161.848 E2.17433
G1 X122.390 Y161.943 E2.19252
G1 X122.199 Y162.001 E2.21070
G1 X121.952 Y162.025 E2.23327
G1 X121.390 Y162.025 E2.28437
G1 X121.330 Y161.723 E2.31235
G1 X121.867 Y161.501 E2.36516
G1 X122.236 Y161.217 E2.40753
G1 X122.515 Y160.833 E2.45069
G1 X122.700 Y160.386 E2.49475
G1 E0.49475 F2400.00000
G92 E0
G1 X85.104 Y159.995 F7800.000
G1 E2.00000 F2400.00000
G1 F1800
G1 X85.065 Y160.285 E2.02662
G1 X84.955 Y160.552 E2.05280
G1 X84.780 Y160.780 E2.07899
G1 X84.552 Y160.955 E2.10517
G1 X84.285 Y161.065 E2.13135
G1 X84.000 Y161.103 E2.15754
G1 X83.715 Y161.065 E2.18372
G1 X83.474 Y160.966 E2.20739
G1 X83.223 Y160.784 E2.23558
G1 X83.045 Y160.552 E2.26221
G1 X82.945 Y160.311 E2.28587
G1 X82.896 Y160.005 E2.31407
G1 X82.935 Y159.715 E2.34070
G1 X83.045 Y159.448 E2.36688
G1 X83.220 Y159.220 E2.39306
G1 X83.448 Y159.045 E2.41925
G1 X83.715 Y158.935 E2.44543
G1 X83.973 Y158.901 E2.46909
G1 X84.281 Y158.933 E2.49729
G1 X84.551 Y159.045 E2.52391
G1 X84.780 Y159.220 E2.55010
G1 X84.955 Y159.448 E2.57628
G1 X85.055 Y159.689 E2.59995
G1 X85.094 Y159.936 E2.62269
G1 X85.104 Y159.995 F7800.000
G1 E0.62269 F2400.00000
G92 E0
G1 X83.670 Y161.723 F7800.000
G1 E2.00000 F2400.00000
G1 F1800
G1 X83.610 Y162.025 E2.02798
G1 X83.048 Y162.025 E2.07908
G1 X82.801 Y162.001 E2.10165
G1 X82.610 Y161.943 E2.11983
G1 X82.433 Y161.848 E2.13802
G1 X82.278 Y161.722 E2.15622
G1 X82.152 Y161.567 E2.17440
G1 X82.057 Y161.390 E2.19259
G1 X82.010 Y161.233 E2.20753
G1 X81.975 Y160.942 E2.23419
G1 X81.975 Y160.390 E2.28438
G1 X82.277 Y160.330 E2.31236
G1 X82.499 Y160.867 E2.36517
G1 X82.783 Y161.236 E2.40754
G1 X83.167 Y161.515 E2.45070
G1 X83.614 Y161.700 E2.49476
G1 E0.49476 F2400.00000
G92 E0
G1 X84.000 Y102.103 F7800.000
G1 E2.00000 F2400.00000
G1 F1800
G1 X83.715 Y102.065 E2.02618
G1 X83.474 Y101.966 E2.04985
G1 X83.223 Y101.784 E2.07805
G1 X83.045 Y101.551 E2.10467
G1 X82.935 Y101.285 E2.13085
G1 X82.897 Y101.000 E2.15704
G1 X82.935 Y100.715 E2.18322
G1 X83.045 Y100.449 E2.20940
G1 X83.220 Y100.220 E2.23558
G1 X83.448 Y100.045 E2.26177
G1 X83.715 Y99.935 E2.28795
G1 X83.973 Y99.901 E2.31162
G1 X84.281 Y99.933 E2.33982
G1 X84.551 Y100.045 E2.36644
G1 X84.780 Y100.220 E2.39262
G1 X84.955 Y100.448 E2.41881
G1 X85.065 Y100.715 E2.44499
G1 X85.103 Y101.000 E2.47117
G1 X85.065 Y101.285 E2.49735
G1 X84.955 Y101.551 E2.52353
G1 X84.780 Y101.780 E2.54972
G1 X84.552 Y101.955 E2.57590
G1 X84.285 Y102.065 E2.60208
G1 X84.059 Y102.095 E2.62281
G1 X84.000 Y102.103 F7800.000
G1 E0.62281 F2400.00000
G92 E0
G1 X82.277 Y100.670 F7800.000
G1 E2.00000 F2400.00000
G1 F1800
G1 X81.975 Y100.610 E2.02798
G1 X81.975 Y100.048 E2.07908
G1 X81.999 Y99.801 E2.10165
G1 X82.057 Y99.610 E2.11983
G1 X82.152 Y99.433 E2.13802
G1 X82.278 Y99.278 E2.15621
G1 X82.433 Y99.152 E2.17440
G1 X82.610 Y99.057 E2.19259
G1 X82.801 Y98.999 E2.21078
G1 X83.048 Y98.975 E2.23334
G1 X83.610 Y98.975 E2.28445
G1 X83.670 Y99.277 E2.31242
G1 X83.133 Y99.499 E2.36523
G1 X82.774 Y99.774 E2.40638
G1 X82.499 Y100.133 E2.44752
G1 X82.300 Y100.614 E2.49487
G1 E0.49487 F2400.00000
G92 E0
G1 X82.600 Y102.956 F7800.000
G1 E2.00000 F2400.00000
G1 F1800
G1 X83.388 Y103.283 E2.07760
G1 X84.000 Y103.364 E2.13371
G1 X84.612 Y103.283 E2.18981
G1 X85.182 Y103.047 E2.24591
G1 X85.671 Y102.671 E2.30202
G1 X86.047 Y102.182 E2.35813
G1 X86.283 Y101.612 E2.41423
G1 X86.364 Y101.000 E2.47034
G1 X86.283 Y100.388 E2.52644
G1 X85.956 Y99.600 E2.60405
G1 X119.044 Y99.600 E5.61264
G1 X118.717 Y100.388 E5.69025
G1 X118.636 Y101.000 E5.74635
G1 X118.717 Y101.612 E5.80245
G1 X118.953 Y102.182 E5.85855
G1 X119.342 Y102.689 E5.91667
G1 X119.860 Y103.064 E5.97481
G1 X120.388 Y103.283 E6.02683
G1 X121.000 Y103.364 E6.08293
G1 X121.612 Y103.283 E6.13904
G1 X122.400 Y102.956 E6.21664
G1 X122.400 Y158.044 E11.22568
G1 X121.591 Y157.708 E11.30530
G1 X120.955 Y157.642 E11.36343
G1 X120.388 Y157.717 E11.41545
G1 X119.818 Y157.953 E11.47155
G1 X119.311 Y158.342 E11.52967
G1 X118.936 Y158.860 E11.58780
G1 X118.717 Y159.388 E11.63982
G1 X118.636 Y160.000 E11.69593
G1 X118.717 Y160.612 E11.75203
G1 X119.044 Y161.400 E11.82963
G1 X85.956 Y161.400 E14.83823
G1 X86.283 Y160.612 E14.91583
G1 X86.366 Y159.978 E14.97395
G1 X86.266 Y159.347 E15.03208
G1 X86.047 Y158.818 E15.08410
G1 X85.671 Y158.329 E15.14021
G1 X85.182 Y157.953 E15.19632
G1 X84.591 Y157.708 E15.25443
G1 X83.955 Y157.642 E15.31255
G1 X83.388 Y157.717 E15.36458
G1 X82.600 Y158.044 E15.44218
G1 X82.600 Y103.016 E20.44577
G1 X82.277 Y101.330 F7800.000
G1 F1800
G1 X82.499 Y101.867 E20.49858
G1 X82.783 Y102.236 E20.54095
G1 X83.167 Y102.515 E20.58411
G1 X83.551 Y102.674 E20.62196
G1 X84.000 Y102.733 E20.66310
G1 X84.449 Y102.674 E20.70424
G1 X84.867 Y102.501 E20.74539
G1 X85.226 Y102.226 E20.78653
G1 X85.501 Y101.867 E20.82768
G1 X85.674 Y101.449 E20.86882
G1 X85.733 Y101.000 E20.90996
G1 X85.674 Y100.551 E20.95111
G1 X85.501 Y100.133 E20.99225
G1 X85.226 Y99.774 E21.03340
G1 X84.867 Y99.499 E21.07454
G1 X84.330 Y99.277 E21.12735
G1 X84.390 Y98.975 E21.15533
G1 X120.610 Y98.975 E24.44878
G1 X120.670 Y99.277 E24.47676
G1 X120.133 Y99.499 E24.52956
G1 X119.764 Y99.783 E24.57193
G1 X119.485 Y100.167 E24.61510
G1 X119.326 Y100.551 E24.65294
G1 X119.267 Y101.000 E24.69409
G1 X119.326 Y101.449 E24.73523
G1 X119.499 Y101.867 E24.77637
G1 X119.783 Y102.236 E24.81874
G1 X120.167 Y102.515 E24.86191
G1 X120.551 Y102.674 E24.89975
G1 X121.000 Y102.733 E24.94090
G1 X121.449 Y102.674 E24.98204
G1 X121.867 Y102.501 E25.02318
G1 X122.236 Y102.217 E25.06555
G1 X122.515 Y101.833 E25.10872
G1 X122.723 Y101.330 E25.15823
G1 X123.025 Y101.390 E25.18621
G1 X123.025 Y159.610 E30.48011
G1 X122.723 Y159.670 E30.50809
G1 X122.501 Y159.133 E30.56089
G1 X122.226 Y158.774 E30.60204
G1 X121.867 Y158.499 E30.64319
G1 X121.436 Y158.321 E30.68555
G1 X120.964 Y158.271 E30.72871
G1 X120.551 Y158.326 E30.76656
G1 X120.133 Y158.499 E30.80770
G1 X119.764 Y158.783 E30.85007
G1 X119.485 Y159.167 E30.89324
G1 X119.326 Y159.551 E30.93108
G1 X119.267 Y160.000 E30.97223
G1 X119.326 Y160.449 E31.01337
G1 X119.499 Y160.867 E31.05451
G1 X119.783 Y161.236 E31.09688
G1 X120.167 Y161.515 E31.14005
G1 X120.670 Y161.723 E31.18956
G1 X120.610 Y162.025 E31.21754
G1 X84.390 Y162.025 E34.51099
G1 X84.330 Y161.723 E34.53896
G1 X84.867 Y161.501 E34.59177
G1 X85.226 Y161.226 E34.63292
G1 X85.501 Y160.867 E34.67406
G1 X85.674 Y160.449 E34.71520
G1 X85.735 Y159.987 E34.75757
G1 X85.660 Y159.518 E34.80074
G1 X85.501 Y159.133 E34.83858
G1 X85.226 Y158.774 E34.87973
G1 X84.867 Y158.499 E34.92087
G1 X84.436 Y158.321 E34.96324
G1 X83.964 Y158.271 E35.00640
G1 X83.551 Y158.326 E35.04425
G1 X83.133 Y158.499 E35.08539
G1 X82.774 Y158.774 E35.12654
G1 X82.499 Y159.133 E35.16768
G1 X82.277 Y159.670 E35.22049
G1 X81.975 Y159.610 E35.24847
G1 X81.975 Y101.390 E40.54237
G1 X82.218 Y101.342 E40.56489
G1 E38.56489 F2400.00000
G92 E0
G1 X119.897 Y101.000 F7800.000
G1 E2.00000 F2400.00000
G1 F1800
G1 X119.935 Y100.715 E2.02618
G1 X120.034 Y100.474 E2.04985
G1 X120.216 Y100.223 E2.07805
G1 X120.449 Y100.045 E2.10467
G1 X120.715 Y99.935 E2.13085
G1 X120.973 Y99.901 E2.15452
G1 X121.281 Y99.933 E2.18272
G1 X121.551 Y100.045 E2.20934
G1 X121.780 Y100.220 E2.23552
G1 X121.955 Y100.448 E2.26171
G1 X122.065 Y100.715 E2.28789
G1 X122.103 Y101.000 E2.31407
G1 X122.065 Y101.285 E2.34026
G1 X121.966 Y101.526 E2.36392
G1 X121.784 Y101.777 E2.39212
G1 X121.551 Y101.955 E2.41875
G1 X121.285 Y102.065 E2.44493
G1 X121.000 Y102.103 E2.47111
G1 X120.715 Y102.065 E2.49729
G1 X120.474 Y101.966 E2.52096
G1 X120.223 Y101.784 E2.54916
G1 X120.045 Y101.551 E2.57578
G1 X119.935 Y101.285 E2.60196
G1 X119.905 Y101.059 E2.62269
G1 X119.897 Y101.000 F7800.000
G1 E0.62269 F2400.00000
G92 E0
G1 X121.330 Y99.277 F7800.000
G1 E2.00000 F2400.00000
G1 F1800
G1 X121.390 Y98.975 E2.02798
G1 X121.952 Y98.975 E2.07908
G1 X122.164 Y98.996 E2.09840
G1 X122.399 Y99.062 E2.12067
G1 X122.567 Y99.152 E2.13795
G1 X122.722 Y99.278 E2.15614
G1 X122.848 Y99.433 E2.17433
G1 X122.943 Y99.610 E2.19251
G1 X123.001 Y99.801 E2.21070
G1 X123.025 Y100.048 E2.23327
G1 X123.025 Y100.610 E2.28437
G1 X122.723 Y100.670 E2.31235
G1 X122.501 Y100.133 E2.36516
G1 X122.226 Y99.774 E2.40630
G1 X121.867 Y99.499 E2.44745
G1 X121.386 Y99.300 E2.49480
G1 X121.330 Y98.350 F7800.000
G1 F1800
G1 X121.983 Y98.350 E2.55415
G1 X122.280 Y98.379 E2.58127
G1 X122.634 Y98.479 E2.61474
G1 X122.916 Y98.629 E2.64380
G1 X123.166 Y98.834 E2.67318
G1 X123.371 Y99.084 E2.70256
G1 X123.523 Y99.369 E2.73194
G1 X123.617 Y99.678 E2.76132
G1 X123.650 Y100.017 E2.79227
G1 X123.650 Y160.983 E8.33585
G1 X123.617 Y161.322 E8.36680
G1 X123.535 Y161.590 E8.39235
G1 X123.368 Y161.919 E8.42582
G1 X123.166 Y162.166 E8.45488
G1 X122.916 Y162.371 E8.48426
G1 X122.631 Y162.523 E8.51364
G1 X122.322 Y162.617 E8.54302
G1 X121.983 Y162.650 E8.57397
G1 X83.017 Y162.650 E12.11710
G1 X82.678 Y162.617 E12.14805
G1 X82.369 Y162.523 E12.17743
G1 X82.084 Y162.371 E12.20682
G1 X81.834 Y162.166 E12.23620
G1 X81.629 Y161.916 E12.26558
G1 X81.477 Y161.631 E12.29496
G1 X81.396 Y161.362 E12.32051
G1 X81.350 Y160.979 E12.35555
G1 X81.350 Y100.017 E17.89880
G1 X81.383 Y99.678 E17.92976
G1 X81.477 Y99.369 E17.95914
G1 X81.629 Y99.084 E17.98852
G1 X81.834 Y98.834 E18.01790
G1 X82.084 Y98.629 E18.04728
G1 X82.369 Y98.477 E18.07667
G1 X82.678 Y98.383 E18.10605
G1 X83.017 Y98.350 E18.13700
G1 X121.270 Y98.350 E21.61532
G1 X121.530 Y98.696 F7800.000
G1 X121.000 Y98.662 F7800.000
G1 F1800
G1 X121.000 Y98.995 E21.62230
G1 F1800
G1 X121.000 Y99.161 E21.62361
G1 X120.903 Y99.558 F7800.000
G1 F1800
G1 X121.000 Y99.536 E21.62406
G1 X121.116 Y99.565 E21.62461
G1 X119.640 Y99.287 F7800.000
G1 F1800
G1 X119.365 Y99.737 E21.62950
G1 E19.62950 F2400.00000
G92 E0
G1 X122.442 Y100.903 F7800.000
G1 E2.00000 F2400.00000
G1 F1800
G1 X122.468 Y101.000 E2.00033
G1 X122.442 Y101.097 E2.00065
G1 X122.839 Y101.000 F7800.000
G1 F1800
G1 X123.005 Y101.000 E2.00196
G1 F1800
G1 X123.338 Y101.000 E2.00894
G1 X122.713 Y102.356 F7800.000
G1 F1800
G1 X122.267 Y102.634 E2.01501
G1 E0.01501 F2400.00000
G92 E0
G1 X85.634 Y99.733 F7800.000
G1 E2.00000 F2400.00000
G1 F1800
G1 X85.356 Y99.287 E2.00285
G1 X84.116 Y99.565 F7800.000
G1 F1800
G1 X84.000 Y99.536 E2.00340
G1 X83.903 Y99.558 E2.00385
G1 X84.000 Y99.161 F7800.000
G1 F1800
G1 X84.000 Y98.995 E2.00516
G1 F1800
G1 X84.000 Y98.662 E2.01214
G1 E0.01214 F2400.00000
G92 E0
G1 X82.558 Y100.903 F7800.000
G1 E2.00000 F2400.00000
G1 F1800
G1 X82.532 Y101.000 E2.00033
G1 X82.558 Y101.097 E2.00065
G1 X82.161 Y101.000 F7800.000
G1 F1800
G1 X81.829 Y101.000 E2.00326
G1 F1800
G1 X81.662 Y101.000 E2.00676
G1 X82.287 Y102.360 F7800.000
G1 F1800
G1 X82.737 Y102.635 E2.01107
G1 X83.468 Y103.649 F7800.000
G1 F1800
G1 X82.982 Y104.135 E2.07410
G1 X82.982 Y105.026 E2.15577
G1 X84.259 Y103.749 E2.32133
G1 X85.018 Y103.649 E2.39153
G1 X85.413 Y103.485 E2.43077
G1 X82.982 Y105.917 E2.74603
G1 E0.74603 F2400.00000
G92 E0
G1 X86.649 Y100.468 F7800.000
G1 E2.00000 F2400.00000
G1 F1800
G1 X87.135 Y99.982 E2.06301
G1 X88.026 Y99.982 E2.14469
G1 X86.749 Y101.259 E2.31024
G1 X86.649 Y102.018 E2.38045
G1 X86.485 Y102.413 E2.41969
G1 X88.917 Y99.982 E2.73494
G1 X89.808 Y99.982 E2.81662
G1 X82.982 Y106.808 E3.70157
G1 X82.982 Y107.699 E3.78325
G1 X90.699 Y99.982 E4.78371
G1 X91.590 Y99.982 E4.86538
G1 X82.982 Y108.590 E5.98134
G1 X82.982 Y109.480 E6.06302
G1 X92.480 Y99.982 E7.29449
G1 X93.371 Y99.982 E7.37616
G1 X82.982 Y110.371 E8.72314
G1 X82.982 Y111.262 E8.80481
G1 X94.262 Y99.982 E10.26729
G1 X95.153 Y99.982 E10.34897
G1 X82.982 Y112.153 E11.92696
G1 X82.982 Y113.044 E12.00863
G1 X96.044 Y99.982 E13.70212
G1 X96.935 Y99.982 E13.78380
G1 X82.982 Y113.935 E15.59279
G1 X82.982 Y114.826 E15.67447
G1 X97.826 Y99.982 E17.59897
G1 X98.717 Y99.982 E17.68064
G1 X82.982 Y115.717 E19.72065
G1 X82.982 Y116.608 E19.80233
G1 X99.608 Y99.982 E21.95784
G1 X100.499 Y99.982 E22.03951
G1 X82.982 Y117.499 E24.31053
G1 X82.982 Y118.390 E24.39221
G1 X101.390 Y99.982 E26.77873
G1 X102.281 Y99.982 E26.86041
G1 X82.982 Y119.281 E29.36243
G1 X82.982 Y120.172 E29.44411
G1 X103.172 Y99.982 E32.06164
G1 X104.063 Y99.982 E32.14332
G1 X82.982 Y121.063 E34.87636
G1 X82.982 Y121.954 E34.95803
G1 X104.954 Y99.982 E37.80658
G1 X105.845 Y99.982 E37.88825
G1 X82.982 Y122.845 E40.85230
G1 X82.982 Y123.736 E40.93398
