; generated by Slic3r 1.3.0 on 2019-09-04 at 17:09:24

; external perimeters extrusion width = 0.44mm (3.38mm^3/s)
; perimeters extrusion width = 0.48mm (7.54mm^3/s)
; infill extrusion width = 0.48mm (10.05mm^3/s)
; solid infill extrusion width = 0.48mm (2.51mm^3/s)
; top infill extrusion width = 0.48mm (1.88mm^3/s)

M107
M190 S60 ; set bed temperature and wait for it to be reached
M104 S200 ; set temperature
G28 ; home all axes
G1 Z5 F5000 ; lift nozzle

; Filament gcode

M109 S200 ; set temperature and wait for it to be reached
G21 ; set units to millimeters
G90 ; use absolute coordinates
M82 ; use absolute distances for extrusion
G92 E0
G1 Z0.350 F7800.000
G1 E-2.00000 F2400.00000
G92 E0
G1 X84.255 Y73.569 F7800.000
G1 E2.00000 F2400.00000
G1 F1800
G1 X84.572 Y73.251 E2.04081
G1 X85.731 Y72.327 E2.17566
G1 X86.157 Y72.059 E2.22138
G1 X87.448 Y71.445 E2.35134
G1 X87.975 Y71.261 E2.40212
G1 X89.317 Y70.967 E2.52704
G1 X89.831 Y70.909 E2.57405
G1 X90.503 Y70.875 E2.63525
G1 X129.503 Y70.875 E6.18151
G1 X130.174 Y70.909 E6.24260
G1 X130.689 Y70.967 E6.28972
G1 X132.030 Y71.261 E6.41457
G1 X132.558 Y71.445 E6.46542
G1 X133.848 Y72.059 E6.59534
G1 X134.274 Y72.327 E6.64110
G1 X135.434 Y73.252 E6.77600
G1 X135.751 Y73.569 E6.81675
G1 X136.676 Y74.728 E6.95164
G1 X136.943 Y75.154 E6.99733
G1 X137.558 Y76.445 E7.12731
G1 X137.742 Y76.973 E7.17817
G1 X138.036 Y78.314 E7.30303
G1 X138.093 Y78.826 E7.34990
G1 X138.128 Y79.500 E7.41124
G1 X138.128 Y140.500 E12.95794
G1 X138.094 Y141.173 E13.01919
G1 X138.036 Y141.686 E13.06615
G1 X137.742 Y143.027 E13.19101
G1 X137.558 Y143.555 E13.24186
G1 X136.943 Y144.846 E13.37185
G1 X136.676 Y145.272 E13.41754
G1 X135.751 Y146.431 E13.55244
G1 X135.434 Y146.748 E13.59319
G1 X134.274 Y147.673 E13.72808
G1 X133.848 Y147.941 E13.77381
G1 X132.558 Y148.555 E13.90376
G1 X132.030 Y148.739 E13.95461
G1 X130.689 Y149.033 E14.07947
G1 X130.176 Y149.091 E14.12643
G1 X129.503 Y149.125 E14.18768
G1 X90.503 Y149.125 E17.73393
G1 X89.829 Y149.091 E17.79527
G1 X89.317 Y149.033 E17.84214
G1 X87.975 Y148.739 E17.96704
G1 X87.447 Y148.555 E18.01785
G1 X86.157 Y147.940 E18.14786
G1 X85.731 Y147.673 E18.19353
G1 X84.572 Y146.748 E18.32842
G1 X84.255 Y146.431 E18.36917
G1 X83.330 Y145.271 E18.50407
G1 X83.062 Y144.846 E18.54979
G1 X82.448 Y143.555 E18.67973
G1 X82.264 Y143.027 E18.73062
G1 X81.970 Y141.686 E18.85545
G1 X81.912 Y141.171 E18.90257
G1 X81.878 Y140.500 E18.96366
G1 X81.878 Y79.500 E24.51037
G1 X81.912 Y78.828 E24.57156
G1 X81.970 Y78.314 E24.61858
G1 X82.264 Y76.972 E24.74354
G1 X82.448 Y76.444 E24.79430
G1 X83.096 Y75.100 E24.92999
G1 X83.330 Y74.728 E24.96993
G1 X84.217 Y73.616 E25.09936
G1 E23.09936 F2400.00000
G92 E0
G1 X129.808 Y140.743 F7800.000
G1 E2.00000 F2400.00000
G1 F1800
G1 X129.672 Y140.852 E2.01582
G1 X129.594 Y140.879 E2.02328
G1 X129.410 Y140.900 E2.04016
G1 X90.593 Y140.900 E5.56981
G1 X90.416 Y140.880 E5.58593
G1 X90.334 Y140.851 E5.59390
G1 X90.198 Y140.743 E5.60969
G1 X90.124 Y140.592 E5.62503
G1 X90.103 Y140.407 E5.64191
G1 X90.103 Y79.590 E11.17201
G1 X90.122 Y79.414 E11.18813
G1 X90.151 Y79.331 E11.19610
G1 X90.260 Y79.195 E11.21190
G1 X90.411 Y79.121 E11.22723
G1 X90.596 Y79.100 E11.24411
G1 X129.417 Y79.100 E14.77411
G1 X129.589 Y79.120 E14.78987
G1 X129.672 Y79.149 E14.79785
G1 X129.808 Y79.257 E14.81364
G1 X129.882 Y79.408 E14.82898
G1 X129.903 Y79.593 E14.84586
G1 X129.903 Y140.410 E20.37596
G1 X129.883 Y140.586 E20.39208
G1 X129.840 Y140.692 E20.40249
G1 X130.250 Y141.185 F7800.000
G1 F1800
G1 X130.138 Y141.297 E20.41685
G1 X129.945 Y141.418 E20.43762
G1 X129.736 Y141.491 E20.45777
G1 X129.446 Y141.525 E20.48425
G1 X90.558 Y141.525 E24.02038
G1 X90.277 Y141.494 E24.04608
G1 X90.061 Y141.418 E24.06686
G1 X89.868 Y141.297 E24.08762
G1 X89.706 Y141.135 E24.10838
G1 X89.585 Y140.942 E24.12916
G1 X89.511 Y140.733 E24.14930
G1 X89.478 Y140.443 E24.17578
G1 X89.478 Y79.555 E29.71237
G1 X89.509 Y79.274 E29.73807
G1 X89.585 Y79.058 E29.75884
G1 X89.706 Y78.865 E29.77961
G1 X89.868 Y78.703 E29.80037
G1 X90.061 Y78.582 E29.82114
G1 X90.270 Y78.509 E29.84129
G1 X90.560 Y78.475 E29.86777
G1 X129.452 Y78.475 E33.40425
G1 X129.729 Y78.506 E33.42960
G1 X129.945 Y78.582 E33.45038
G1 X130.138 Y78.703 E33.47114
G1 X130.300 Y78.865 E33.49190
G1 X130.421 Y79.058 E33.51268
G1 X130.494 Y79.267 E33.53282
G1 X130.528 Y79.557 E33.55930
G1 X130.528 Y140.445 E39.09589
G1 X130.496 Y140.726 E39.12159
G1 X130.421 Y140.942 E39.14236
G1 X130.292 Y141.143 E39.16405
G1 X130.692 Y141.627 F7800.000
G1 F1800
G1 X130.530 Y141.788 E39.18481
G1 X130.217 Y141.985 E39.21839
G1 X129.877 Y142.104 E39.25123
G1 X129.483 Y142.150 E39.28730
G1 X90.523 Y142.150 E42.82992
G1 X90.137 Y142.107 E42.86520
G1 X89.788 Y141.985 E42.89878
G1 X89.476 Y141.788 E42.93236
G1 X89.215 Y141.527 E42.96593
G1 X89.018 Y141.215 E42.99952
G1 X88.899 Y140.874 E43.03235
G1 X88.853 Y140.480 E43.06842
G1 X88.853 Y79.520 E48.61149
G1 X88.896 Y79.134 E48.64678
G1 X89.018 Y78.785 E48.68036
G1 X89.215 Y78.473 E48.71393
G1 X89.476 Y78.212 E48.74751
G1 X89.788 Y78.015 E48.78109
G1 X90.129 Y77.896 E48.81392
G1 X90.523 Y77.850 E48.85000
G1 X129.487 Y77.850 E52.39297
G1 X129.869 Y77.893 E52.42790
G1 X130.217 Y78.015 E52.46148
G1 X130.530 Y78.212 E52.49505
G1 X130.791 Y78.473 E52.52863
G1 X130.988 Y78.785 E52.56221
G1 X131.107 Y79.126 E52.59505
G1 X131.153 Y79.520 E52.63112
G1 X131.153 Y140.480 E58.17419
G1 X131.110 Y140.866 E58.20947
G1 X130.988 Y141.215 E58.24305
G1 X130.791 Y141.527 E58.27663
G1 X130.734 Y141.584 E58.28399
G1 X130.468 Y141.580 F7800.000
G1 E56.28399 F2400.00000
G92 E0
G1 X129.035 Y140.518 F7800.000
G1 E2.00000 F2400.00000
G1 F1800
G1 X129.521 Y140.032 E2.06260
G1 X129.521 Y139.147 E2.14316
G1 X128.150 Y140.518 E2.31968
G1 X127.265 Y140.518 E2.40024
G1 X129.521 Y138.263 E2.69069
G1 X129.521 Y137.378 E2.77125
G1 X126.381 Y140.518 E3.17563
G1 X125.496 Y140.518 E3.25618
G1 X129.521 Y136.493 E3.77449
G1 X129.521 Y135.608 E3.85504
G1 X124.611 Y140.518 E4.48727
G1 X123.726 Y140.518 E4.56783
G1 X129.521 Y134.723 E5.31399
G1 X129.521 Y133.838 E5.39454
G1 X122.841 Y140.518 E6.25463
G1 X121.956 Y140.518 E6.33518
G1 X129.521 Y132.954 E7.30919
G1 X129.521 Y132.069 E7.38975
G1 X121.072 Y140.518 E8.47768
G1 X120.187 Y140.518 E8.55824
G1 X129.521 Y131.184 E9.76010
G1 X129.521 Y130.299 E9.84066
G1 X119.302 Y140.518 E11.15644
G1 X118.417 Y140.518 E11.23700
G1 X129.521 Y129.414 E12.66671
G1 X129.521 Y128.529 E12.74727
G1 X117.532 Y140.518 E14.29090
G1 X116.647 Y140.518 E14.37146
G1 X129.521 Y127.645 E16.02902
G1 X129.521 Y126.760 E16.10958
G1 X115.763 Y140.518 E17.88107
G1 X114.878 Y140.518 E17.96163
G1 X129.521 Y125.875 E19.84704
G1 X129.521 Y124.990 E19.92760
G1 X113.993 Y140.518 E21.92694
G1 X113.108 Y140.518 E22.00750
G1 X129.521 Y124.105 E24.12077
G1 X129.521 Y123.220 E24.20132
G1 X112.223 Y140.518 E26.42852
G1 X111.338 Y140.518 E26.50907
G1 X129.521 Y122.336 E28.85019
G1 X129.521 Y121.451 E28.93075
G1 X110.454 Y140.518 E31.38579
G1 X109.569 Y140.518 E31.46635
G1 X129.521 Y120.566 E34.03532
G1 X129.521 Y119.681 E34.11588
G1 X108.684 Y140.518 E36.79878
G1 X107.799 Y140.518 E36.87933
G1 X129.521 Y118.796 E39.67616
G1 X129.521 Y117.911 E39.75671
G1 X106.914 Y140.518 E42.66746
G1 X106.029 Y140.518 E42.74802
G1 X129.521 Y117.027 E45.77269
G1 X129.521 Y116.142 E45.85325
G1 X105.145 Y140.518 E48.99185
G1 X104.260 Y140.518 E49.07241
G1 X129.521 Y115.257 E52.32494
G1 X129.521 Y114.372 E52.40549
G1 X103.375 Y140.518 E55.77195
G1 X102.490 Y140.518 E55.85250
G1 X129.521 Y113.487 E59.33288
G1 X129.521 Y112.602 E59.41344
G1 X101.605 Y140.518 E63.00774
G1 X100.720 Y140.518 E63.08830
G1 X129.521 Y111.718 E66.79653
G1 X129.521 Y110.833 E66.87709
G1 X99.836 Y140.518 E70.69924
G1 X98.951 Y140.518 E70.77980
G1 X129.521 Y109.948 E74.71588
G1 X129.521 Y109.063 E74.79644
G1 X98.066 Y140.518 E78.84645
G1 X97.181 Y140.518 E78.92701
G1 X129.521 Y108.178 E83.09094
G1 X129.521 Y107.293 E83.17150
G1 X96.296 Y140.518 E87.44936
G1 X95.411 Y140.518 E87.52992
G1 X129.521 Y106.409 E91.92170
G1 X129.521 Y105.524 E92.00226
G1 X94.527 Y140.518 E96.50797
G1 X93.642 Y140.518 E96.58853
G1 X129.521 Y104.639 E101.20817
G1 X129.521 Y103.754 E101.28873
G1 X92.757 Y140.518 E106.02229
G1 X91.872 Y140.518 E106.10285
G1 X129.521 Y102.869 E110.95034
G1 X129.521 Y101.984 E111.03089
G1 X90.987 Y140.518 E115.99231
G1 X90.485 Y140.518 E116.03809
G1 X90.485 Y140.136 E116.07287
G1 X129.521 Y101.100 E121.09903
G1 X129.521 Y100.215 E121.17958
G1 X90.485 Y139.252 E126.20574
G1 X90.485 Y138.367 E126.28630
G1 X129.521 Y99.330 E131.31246
G1 X129.521 Y98.445 E131.39301
G1 X90.485 Y137.482 E136.41917
G1 X90.485 Y136.597 E136.49973
G1 X129.521 Y97.560 E141.52589
G1 X129.521 Y96.675 E141.60644
G1 X90.485 Y135.712 E146.63260
G1 X90.485 Y134.827 E146.71316
G1 X129.521 Y95.791 E151.73932
G1 X129.521 Y94.906 E151.81987
G1 X90.485 Y133.943 E156.84603
G1 X90.485 Y133.058 E156.92659
G1 X129.521 Y94.021 E161.95275
G1 X129.521 Y93.136 E162.03330
G1 X90.485 Y132.173 E167.05946
G1 X90.485 Y131.288 E167.14002
G1 X129.521 Y92.251 E172.16617
G1 X129.521 Y91.366 E172.24673
G1 X90.485 Y130.403 E177.27289
G1 X90.485 Y129.518 E177.35345
G1 X129.521 Y90.482 E182.37961
G1 X129.521 Y89.597 E182.46016
G1 X90.485 Y128.634 E187.48632
G1 X90.485 Y127.749 E187.56688
G1 X129.521 Y88.712 E192.59303
G1 X129.521 Y87.827 E192.67359
G1 X90.485 Y126.864 E197.69975
G1 X90.485 Y125.979 E197.78031
G1 X129.521 Y86.942 E202.80646
G1 X129.521 Y86.058 E202.88702
G1 X90.485 Y125.094 E207.91318
G1 X90.485 Y124.209 E207.99374
G1 X129.521 Y85.173 E213.01989
G1 X129.521 Y84.288 E213.10045
G1 X90.485 Y123.325 E218.12661
G1 X90.485 Y122.440 E218.20717
G1 X129.521 Y83.403 E223.23332
G1 X129.521 Y82.518 E223.31388
G1 X90.485 Y121.555 E228.34004
G1 X90.485 Y120.670 E228.42060
G1 X129.521 Y81.633 E233.44675
G1 X129.521 Y80.749 E233.52731
G1 X90.485 Y119.785 E238.55347
G1 X90.485 Y118.900 E238.63403
G1 X129.521 Y79.864 E243.66018
G1 X129.521 Y79.482 E243.69493
G1 X129.018 Y79.482 E243.74074
G1 X90.485 Y118.016 E248.70212
G1 X90.485 Y117.131 E248.78267
G1 X128.133 Y79.482 E253.63012
G1 X127.248 Y79.482 E253.71068
G1 X90.485 Y116.246 E258.44421
G1 X90.485 Y115.361 E258.52476
G1 X126.364 Y79.482 E263.14437
G1 X125.479 Y79.482 E263.22492
G1 X90.485 Y114.476 E267.73060
G1 X90.485 Y113.591 E267.81116
G1 X124.594 Y79.482 E272.20291
G1 X123.709 Y79.482 E272.28346
G1 X90.485 Y112.707 E276.56129
G1 X90.485 Y111.822 E276.64185
G1 X122.824 Y79.482 E280.80575
G1 X121.940 Y79.482 E280.88631
G1 X90.485 Y110.937 E284.93628
G1 X90.485 Y110.052 E285.01684
G1 X121.055 Y79.482 E288.95289
G1 X120.170 Y79.482 E289.03345
G1 X90.485 Y109.167 E292.85558
G1 X90.485 Y108.282 E292.93613
G1 X119.285 Y79.482 E296.64434
G1 X118.400 Y79.482 E296.72489
G1 X90.485 Y107.398 E300.31917
G1 X90.485 Y106.513 E300.39973
G1 X117.515 Y79.482 E303.88008
G1 X116.631 Y79.482 E303.96064
G1 X90.485 Y105.628 E307.32707
G1 X90.485 Y104.743 E307.40762
G1 X115.746 Y79.482 E310.66013
G1 X114.861 Y79.482 E310.74068
G1 X90.485 Y103.858 E313.87926
G1 X90.485 Y102.973 E313.95982
G1 X113.976 Y79.482 E316.98447
G1 X113.091 Y79.482 E317.06503
G1 X90.485 Y102.089 E319.97576
G1 X90.485 Y101.204 E320.05632
G1 X112.207 Y79.482 E322.85312
G1 X111.322 Y79.482 E322.93368
G1 X90.485 Y100.319 E325.61656
G1 X90.485 Y99.434 E325.69711
G1 X110.437 Y79.482 E328.26607
G1 X109.552 Y79.482 E328.34663
G1 X90.485 Y98.549 E330.80165
G1 X90.485 Y97.664 E330.88221
G1 X108.667 Y79.482 E333.22332
G1 X107.782 Y79.482 E333.30387
G1 X90.485 Y96.780 E335.53105
G1 X90.485 Y95.895 E335.61161
G1 X106.898 Y79.482 E337.72487
G1 X106.013 Y79.482 E337.80542
G1 X90.485 Y95.010 E339.80475
G1 X90.485 Y94.125 E339.88531
G1 X105.128 Y79.482 E341.77072
G1 X104.243 Y79.482 E341.85127
G1 X90.485 Y93.240 E343.62275
G1 X90.485 Y92.356 E343.70331
G1 X103.358 Y79.482 E345.36087
G1 X102.473 Y79.482 E345.44143
G1 X90.485 Y91.471 E346.98506
G1 X90.485 Y90.586 E347.06561
G1 X101.589 Y79.482 E348.49532
G1 X100.704 Y79.482 E348.57588
G1 X90.485 Y89.701 E349.89166
G1 X90.485 Y88.816 E349.97222
G1 X99.819 Y79.482 E351.17407
G1 X98.934 Y79.482 E351.25463
G1 X90.485 Y87.931 E352.34256
G1 X90.485 Y87.047 E352.42312
G1 X98.049 Y79.482 E353.39713
G1 X97.165 Y79.482 E353.47768
G1 X90.485 Y86.162 E354.33776
G1 X90.485 Y85.277 E354.41832
G1 X96.280 Y79.482 E355.16448
G1 X95.395 Y79.482 E355.24504
G1 X90.485 Y84.392 E355.87727
G1 X90.485 Y83.507 E355.95783
G1 X94.510 Y79.482 E356.47613
G1 X93.625 Y79.482 E356.55669
G1 X90.485 Y82.622 E356.96107
G1 X90.485 Y81.738 E357.04163
G1 X92.740 Y79.482 E357.33209
G1 X91.856 Y79.482 E357.41265
G1 X90.485 Y80.853 E357.58918
G1 X90.485 Y79.968 E357.66974
G1 X90.971 Y79.482 E357.73235
G1 Z0.650 F7800.000
G1 X130.206 Y141.142 F7800.000
G1 F3600
G1 X130.100 Y141.249 E357.74024
G1 X129.917 Y141.363 E357.75149
G1 X129.733 Y141.428 E357.76171
G1 X129.439 Y141.464 E357.77715
G1 X90.561 Y141.464 E359.80835
G1 X90.291 Y141.434 E359.82252
G1 X90.088 Y141.363 E359.83376
G1 X89.906 Y141.249 E359.84498
G1 X89.754 Y141.097 E359.85620
G1 X89.640 Y140.914 E359.86745
G1 X89.575 Y140.730 E359.87768
G1 X89.539 Y140.436 E359.89312
G1 X89.539 Y79.558 E363.07370
G1 X89.569 Y79.288 E363.08787
G1 X89.640 Y79.085 E363.09912
G1 X89.754 Y78.903 E363.11034
G1 X89.906 Y78.751 E363.12156
G1 X90.089 Y78.637 E363.13281
G1 X90.273 Y78.572 E363.14303
G1 X90.567 Y78.536 E363.15847
G1 X129.456 Y78.537 E365.19024
G1 X129.714 Y78.566 E365.20383
G1 X129.918 Y78.637 E365.21508
G1 X130.100 Y78.751 E365.22630
G1 X130.251 Y78.903 E365.23752
G1 X130.366 Y79.086 E365.24877
G1 X130.431 Y79.270 E365.25899
G1 X130.467 Y79.564 E365.27444
G1 X130.467 Y140.442 E368.45502
G1 X130.437 Y140.712 E368.46919
G1 X130.366 Y140.915 E368.48043
G1 X130.249 Y141.099 E368.49184
G1 X130.503 Y141.438 F7800.000
G1 F3600
G1 X130.362 Y141.578 E368.50221
G1 X130.100 Y141.743 E368.51838
G1 X129.828 Y141.838 E368.53341
G1 X129.465 Y141.883 E368.55255
G1 X90.537 Y141.883 E370.58632
G1 X90.198 Y141.845 E370.60417
G1 X89.905 Y141.743 E370.62035
G1 X89.643 Y141.578 E370.63651
G1 X89.425 Y141.359 E370.65267
G1 X89.260 Y141.097 E370.66885
G1 X89.165 Y140.826 E370.68388
G1 X89.120 Y140.462 E370.70302
G1 X89.120 Y79.534 E373.88618
G1 X89.158 Y79.195 E373.90403
G1 X89.260 Y78.903 E373.92020
G1 X89.425 Y78.641 E373.93637
G1 X89.643 Y78.422 E373.95253
G1 X89.906 Y78.257 E373.96871
G1 X90.177 Y78.162 E373.98374
G1 X90.541 Y78.117 E374.00288
G1 X129.479 Y78.118 E376.03722
G1 X129.808 Y78.155 E376.05449
G1 X130.100 Y78.257 E376.07067
G1 X130.362 Y78.422 E376.08683
G1 X130.581 Y78.641 E376.10300
G1 X130.746 Y78.903 E376.11917
G1 X130.841 Y79.174 E376.13420
G1 X130.886 Y79.538 E376.15334
G1 X130.886 Y140.465 E379.33650
G1 X130.848 Y140.805 E379.35435
G1 X130.746 Y141.097 E379.37053
G1 X130.545 Y141.395 E379.38929
G1 X130.784 Y141.719 F7800.000
G1 F1800
G1 X130.612 Y141.891 E379.40069
G1 X130.273 Y142.103 E379.41939
G1 X129.919 Y142.227 E379.43696
G1 X129.489 Y142.280 E379.45726
G1 X90.515 Y142.280 E381.28318
G1 X90.109 Y142.234 E381.30232
G1 X89.732 Y142.103 E381.32102
G1 X89.394 Y141.891 E381.33972
G1 X89.112 Y141.609 E381.35841
G1 X88.900 Y141.271 E381.37711
G1 X88.776 Y140.917 E381.39468
G1 X88.723 Y140.486 E381.41499
G1 X88.723 Y79.512 E384.27158
G1 X88.768 Y79.106 E384.29072
G1 X88.900 Y78.729 E384.30943
G1 X89.112 Y78.391 E384.32812
G1 X89.394 Y78.109 E384.34682
G1 X89.732 Y77.897 E384.36552
G1 X90.086 Y77.773 E384.38309
G1 X90.516 Y77.720 E384.40339
G1 X129.502 Y77.721 E386.22982
G1 X129.897 Y77.766 E386.24844
G1 X130.274 Y77.897 E386.26714
G1 X130.612 Y78.109 E386.28584
G1 X130.894 Y78.391 E386.30454
G1 X131.106 Y78.729 E386.32324
G1 X131.230 Y79.083 E386.34081
G1 X131.283 Y79.514 E386.36111
G1 X131.283 Y140.488 E389.21771
G1 X131.237 Y140.894 E389.23685
G1 X131.106 Y141.271 E389.25555
G1 X130.894 Y141.609 E389.27425
G1 X130.826 Y141.676 E389.27874
G1 X130.546 Y141.669 F7800.000
G1 X89.921 Y140.670 F7800.000
G1 F1200
G1 X90.332 Y141.082 E389.30922
G1 X90.434 Y141.146 E389.31548
G1 X90.548 Y141.186 E389.32181
G1 X90.747 Y141.208 E389.33231
G1 X91.052 Y141.208 E389.34826
