; generated by Slic3r 1.3.0 on 2019-09-02 at 15:01:49

; external perimeters extrusion width = 0.44mm (3.38mm^3/s)
; perimeters extrusion width = 0.48mm (7.54mm^3/s)
; infill extrusion width = 0.48mm (10.05mm^3/s)
; solid infill extrusion width = 0.48mm (2.51mm^3/s)
; top infill extrusion width = 0.48mm (1.88mm^3/s)

M107
M104 S200 ; set temperature
G28 ; home all axes
G1 Z5 F5000 ; lift nozzle

; Filament gcode

M109 S200 ; set temperature and wait for it to be reached
G21 ; set units to millimeters
G90 ; use absolute coordinates
M82 ; use absolute distances for extrusion
G92 E0
G1 Z0.350 F7800.000
G1 E-2.00000 F2400.00000
G92 E0
G1 X48.069 Y48.251 F7800.000
G1 E2.00000 F2400.00000
G1 F1800
G1 X49.228 Y47.327 E2.13480
G1 X49.600 Y47.093 E2.17474
G1 X50.945 Y46.445 E2.31044
G1 X51.472 Y46.261 E2.36125
G1 X52.814 Y45.967 E2.48615
G1 X53.328 Y45.909 E2.53316
G1 X54.000 Y45.875 E2.59436
G1 X142.000 Y45.875 E10.59616
G1 X143.040 Y45.945 E10.69092
G1 X144.313 Y46.199 E10.80899
G1 X144.688 Y46.313 E10.84464
G1 X145.888 Y46.810 E10.96273
G1 X146.194 Y46.973 E10.99422
G1 X147.314 Y47.716 E11.11646
G1 X147.617 Y47.965 E11.15211
G1 X148.535 Y48.883 E11.27021
G1 X148.784 Y49.186 E11.30587
G1 X149.506 Y50.266 E11.42393
G1 X149.690 Y50.612 E11.45960
G1 X150.187 Y51.811 E11.57768
G1 X150.301 Y52.187 E11.61333
G1 X150.555 Y53.461 E11.73143
G1 X150.625 Y54.500 E11.82616
G1 X150.625 Y115.500 E17.37287
G1 X150.555 Y116.539 E17.46760
G1 X150.301 Y117.813 E17.58571
G1 X150.187 Y118.189 E17.62137
G1 X149.690 Y119.388 E17.73944
G1 X149.506 Y119.734 E17.77509
G1 X148.784 Y120.814 E17.89318
G1 X148.535 Y121.117 E17.92883
G1 X147.617 Y122.035 E18.04693
G1 X147.314 Y122.284 E18.08260
G1 X146.234 Y123.005 E18.20065
G1 X145.888 Y123.190 E18.23631
G1 X144.688 Y123.687 E18.35441
G1 X144.313 Y123.801 E18.39008
G1 X143.040 Y124.055 E18.50815
G1 X142.000 Y124.125 E18.60289
G1 X54.000 Y124.125 E26.60469
G1 X53.327 Y124.091 E26.66596
G1 X52.814 Y124.033 E26.71291
G1 X51.473 Y123.739 E26.83778
G1 X50.945 Y123.555 E26.88861
G1 X49.655 Y122.941 E27.01854
G1 X49.229 Y122.673 E27.06428
G1 X48.069 Y121.748 E27.19918
G1 X47.752 Y121.431 E27.23993
G1 X46.827 Y120.271 E27.37483
G1 X46.559 Y119.845 E27.42061
G1 X45.945 Y118.555 E27.55051
G1 X45.761 Y118.028 E27.60127
G1 X45.467 Y116.686 E27.72621
G1 X45.409 Y116.171 E27.77333
G1 X45.375 Y115.500 E27.83442
G1 X45.375 Y54.500 E33.38113
G1 X45.409 Y53.827 E33.44240
G1 X45.467 Y53.314 E33.48934
G1 X45.762 Y51.971 E33.61437
G1 X45.945 Y51.445 E33.66505
G1 X46.559 Y50.155 E33.79492
G1 X46.827 Y49.728 E33.84072
G1 X47.752 Y48.569 E33.97562
G1 X48.027 Y48.293 E34.01101
G1 E32.01101 F2400.00000
G92 E0
G1 X139.935 Y114.215 F7800.000
G1 E2.00000 F2400.00000
G1 F1800
G1 X140.034 Y113.974 E2.02367
G1 X140.216 Y113.723 E2.05187
G1 X140.448 Y113.545 E2.07849
G1 X140.715 Y113.435 E2.10467
G1 X140.973 Y113.401 E2.12834
G1 X141.281 Y113.433 E2.15654
G1 X141.552 Y113.545 E2.18316
G1 X141.780 Y113.720 E2.20934
G1 X141.955 Y113.948 E2.23553
G1 X142.065 Y114.215 E2.26171
G1 X142.103 Y114.500 E2.28789
G1 X142.065 Y114.785 E2.31407
G1 X141.966 Y115.026 E2.33774
G1 X141.784 Y115.277 E2.36594
G1 X141.552 Y115.455 E2.39256
G1 X141.311 Y115.555 E2.41623
G1 X141.005 Y115.604 E2.44443
G1 X140.715 Y115.565 E2.47105
G1 X140.448 Y115.455 E2.49723
G1 X140.220 Y115.280 E2.52342
G1 X140.045 Y115.052 E2.54960
G1 X139.935 Y114.785 E2.57578
G1 X139.897 Y114.500 E2.60196
G1 X139.927 Y114.274 E2.62269
G1 X139.935 Y114.215 F7800.000
G1 E0.62269 F2400.00000
G92 E0
G1 X141.330 Y116.223 F7800.000
G1 E2.00000 F2400.00000
G1 F1800
G1 X141.867 Y116.001 E2.05281
G1 X142.236 Y115.717 E2.09518
G1 X142.515 Y115.333 E2.13834
G1 X142.723 Y114.830 E2.18785
G1 X143.025 Y114.890 E2.21583
G1 X143.025 Y115.452 E2.26693
G1 X143.001 Y115.699 E2.28950
G1 X142.943 Y115.890 E2.30769
G1 X142.848 Y116.067 E2.32588
G1 X142.722 Y116.222 E2.34406
G1 X142.567 Y116.348 E2.36225
G1 X142.390 Y116.443 E2.38044
G1 X142.199 Y116.501 E2.39863
G1 X141.952 Y116.525 E2.42120
G1 X141.390 Y116.525 E2.47230
G1 X141.342 Y116.282 E2.49482
G1 E0.49482 F2400.00000
G92 E0
G1 X105.103 Y114.500 F7800.000
G1 E2.00000 F2400.00000
G1 F1800
G1 X105.065 Y114.785 E2.02618
G1 X104.955 Y115.052 E2.05236
G1 X104.780 Y115.280 E2.07855
G1 X104.551 Y115.455 E2.10473
G1 X104.285 Y115.565 E2.13091
G1 X104.000 Y115.603 E2.15710
G1 X103.715 Y115.565 E2.18328
G1 X103.448 Y115.455 E2.20946
G1 X103.220 Y115.280 E2.23565
G1 X103.045 Y115.052 E2.26183
G1 X102.945 Y114.811 E2.28550
G1 X102.896 Y114.505 E2.31369
G1 X102.935 Y114.215 E2.34032
G1 X103.045 Y113.948 E2.36650
G1 X103.220 Y113.720 E2.39268
G1 X103.448 Y113.545 E2.41887
G1 X103.715 Y113.435 E2.44505
G1 X103.973 Y113.401 E2.46871
G1 X104.281 Y113.433 E2.49691
G1 X104.552 Y113.545 E2.52353
G1 X104.780 Y113.720 E2.54972
G1 X104.955 Y113.948 E2.57590
G1 X105.065 Y114.215 E2.60208
G1 X105.095 Y114.441 E2.62281
G1 X105.103 Y114.500 F7800.000
G1 E0.62281 F2400.00000
G92 E0
G1 X103.670 Y116.223 F7800.000
G1 E2.00000 F2400.00000
G1 F1800
G1 X103.610 Y116.525 E2.02798
G1 X103.048 Y116.525 E2.07908
G1 X102.801 Y116.501 E2.10165
G1 X102.610 Y116.443 E2.11983
G1 X102.433 Y116.348 E2.13802
G1 X102.278 Y116.222 E2.15621
G1 X102.152 Y116.067 E2.17440
G1 X102.057 Y115.890 E2.19259
G1 X102.010 Y115.733 E2.20753
G1 X101.975 Y115.442 E2.23419
G1 X101.975 Y114.890 E2.28438
G1 X102.277 Y114.830 E2.31236
G1 X102.499 Y115.367 E2.36517
G1 X102.774 Y115.726 E2.40631
G1 X103.133 Y116.001 E2.44746
G1 X103.614 Y116.200 E2.49481
G1 E0.49481 F2400.00000
G92 E0
G1 X104.000 Y56.603 F7800.000
G1 E2.00000 F2400.00000
G1 F1800
G1 X103.715 Y56.565 E2.02618
G1 X103.448 Y56.455 E2.05236
G1 X103.220 Y56.280 E2.07855
G1 X103.045 Y56.052 E2.10473
G1 X102.935 Y55.785 E2.13091
G1 X102.897 Y55.500 E2.15710
G1 X102.935 Y55.215 E2.18328
G1 X103.045 Y54.948 E2.20946
G1 X103.220 Y54.720 E2.23564
G1 X103.448 Y54.545 E2.26183
G1 X103.715 Y54.435 E2.28801
G1 X103.973 Y54.401 E2.31168
G1 X104.281 Y54.433 E2.33988
G1 X104.552 Y54.545 E2.36650
G1 X104.780 Y54.720 E2.39268
G1 X104.955 Y54.948 E2.41887
G1 X105.065 Y55.215 E2.44505
G1 X105.103 Y55.500 E2.47123
G1 X105.065 Y55.785 E2.49741
G1 X104.955 Y56.052 E2.52359
G1 X104.780 Y56.280 E2.54978
G1 X104.552 Y56.455 E2.57596
G1 X104.285 Y56.565 E2.60214
G1 X104.059 Y56.595 E2.62287
G1 X104.000 Y56.603 F7800.000
G1 E0.62287 F2400.00000
G92 E0
G1 X102.277 Y55.170 F7800.000
G1 E2.00000 F2400.00000
G1 F1800
G1 X101.975 Y55.110 E2.02798
G1 X101.975 Y54.548 E2.07908
G1 X101.999 Y54.301 E2.10165
G1 X102.057 Y54.110 E2.11983
G1 X102.152 Y53.933 E2.13802
G1 X102.278 Y53.778 E2.15621
G1 X102.433 Y53.652 E2.17440
G1 X102.610 Y53.557 E2.19259
G1 X102.767 Y53.510 E2.20753
G1 X103.058 Y53.475 E2.23419
G1 X103.610 Y53.475 E2.28438
G1 X103.670 Y53.777 E2.31236
G1 X103.133 Y53.999 E2.36517
G1 X102.774 Y54.274 E2.40632
G1 X102.499 Y54.633 E2.44746
G1 X102.300 Y55.114 E2.49481
G1 E0.49481 F2400.00000
G92 E0
G1 X102.600 Y57.456 F7800.000
G1 E2.00000 F2400.00000
G1 F1800
G1 X103.388 Y57.783 E2.07760
G1 X104.000 Y57.864 E2.13371
G1 X104.612 Y57.783 E2.18981
G1 X105.182 Y57.547 E2.24592
G1 X105.671 Y57.171 E2.30202
G1 X106.047 Y56.682 E2.35813
G1 X106.283 Y56.112 E2.41423
G1 X106.364 Y55.500 E2.47034
G1 X106.283 Y54.888 E2.52644
G1 X105.956 Y54.100 E2.60405
G1 X139.044 Y54.100 E5.61264
G1 X138.717 Y54.888 E5.69025
G1 X138.636 Y55.500 E5.74635
G1 X138.717 Y56.112 E5.80245
G1 X138.953 Y56.682 E5.85856
G1 X139.329 Y57.171 E5.91466
G1 X139.818 Y57.547 E5.97077
G1 X140.388 Y57.783 E6.02687
G1 X141.022 Y57.866 E6.08499
G1 X141.653 Y57.766 E6.14312
G1 X142.400 Y57.456 E6.21664
G1 X142.400 Y112.544 E11.22569
G1 X141.591 Y112.208 E11.30530
G1 X140.955 Y112.142 E11.36343
G1 X140.388 Y112.217 E11.41545
G1 X139.818 Y112.453 E11.47155
G1 X139.311 Y112.842 E11.52967
G1 X138.936 Y113.360 E11.58780
G1 X138.717 Y113.888 E11.63982
G1 X138.636 Y114.500 E11.69593
G1 X138.717 Y115.112 E11.75203
G1 X139.044 Y115.900 E11.82964
G1 X105.956 Y115.900 E14.83823
G1 X106.283 Y115.112 E14.91584
G1 X106.364 Y114.500 E14.97194
G1 X106.283 Y113.888 E15.02805
G1 X106.047 Y113.318 E15.08415
G1 X105.671 Y112.829 E15.14026
G1 X105.182 Y112.453 E15.19637
G1 X104.591 Y112.208 E15.25448
G1 X103.955 Y112.142 E15.31261
G1 X103.388 Y112.217 E15.36463
G1 X102.600 Y112.544 E15.44223
G1 X102.600 Y57.516 E20.44582
G1 X102.277 Y55.830 F7800.000
G1 F1800
G1 X102.499 Y56.367 E20.49863
G1 X102.774 Y56.726 E20.53978
G1 X103.133 Y57.001 E20.58092
G1 X103.551 Y57.174 E20.62206
G1 X104.000 Y57.233 E20.66321
G1 X104.449 Y57.174 E20.70435
G1 X104.867 Y57.001 E20.74549
G1 X105.226 Y56.726 E20.78664
G1 X105.501 Y56.367 E20.82779
G1 X105.674 Y55.949 E20.86893
G1 X105.733 Y55.500 E20.91007
G1 X105.674 Y55.051 E20.95122
G1 X105.501 Y54.633 E20.99236
G1 X105.226 Y54.274 E21.03350
G1 X104.867 Y53.999 E21.07465
G1 X104.330 Y53.777 E21.12746
G1 X104.390 Y53.475 E21.15544
G1 X140.610 Y53.475 E24.44888
G1 X140.670 Y53.777 E24.47686
G1 X140.133 Y53.999 E24.52967
G1 X139.764 Y54.283 E24.57204
G1 X139.485 Y54.667 E24.61520
G1 X139.326 Y55.051 E24.65305
G1 X139.267 Y55.500 E24.69419
G1 X139.326 Y55.949 E24.73533
G1 X139.499 Y56.367 E24.77648
G1 X139.774 Y56.726 E24.81762
G1 X140.133 Y57.001 E24.85877
G1 X140.551 Y57.174 E24.89991
G1 X141.013 Y57.235 E24.94228
G1 X141.482 Y57.160 E24.98544
G1 X141.867 Y57.001 E25.02329
G1 X142.236 Y56.717 E25.06566
G1 X142.515 Y56.333 E25.10882
G1 X142.723 Y55.830 E25.15833
G1 X143.025 Y55.890 E25.18631
G1 X143.025 Y114.110 E30.48021
G1 X142.723 Y114.170 E30.50819
G1 X142.501 Y113.633 E30.56099
G1 X142.226 Y113.274 E30.60214
G1 X141.867 Y112.999 E30.64329
G1 X141.436 Y112.821 E30.68565
G1 X140.964 Y112.771 E30.72882
G1 X140.551 Y112.826 E30.76666
G1 X140.133 Y112.999 E30.80780
G1 X139.764 Y113.283 E30.85018
G1 X139.485 Y113.667 E30.89334
G1 X139.326 Y114.051 E30.93118
G1 X139.267 Y114.500 E30.97233
G1 X139.326 Y114.949 E31.01347
G1 X139.499 Y115.367 E31.05461
G1 X139.774 Y115.726 E31.09576
G1 X140.133 Y116.001 E31.13691
G1 X140.670 Y116.223 E31.18971
G1 X140.610 Y116.525 E31.21769
G1 X104.390 Y116.525 E34.51114
G1 X104.330 Y116.223 E34.53912
G1 X104.867 Y116.001 E34.59192
G1 X105.226 Y115.726 E34.63307
G1 X105.501 Y115.367 E34.67422
G1 X105.674 Y114.949 E34.71536
G1 X105.733 Y114.500 E34.75650
G1 X105.674 Y114.051 E34.79765
G1 X105.501 Y113.633 E34.83879
G1 X105.226 Y113.274 E34.87994
G1 X104.867 Y112.999 E34.92108
G1 X104.436 Y112.821 E34.96345
G1 X103.964 Y112.771 E35.00661
G1 X103.551 Y112.826 E35.04446
G1 X103.133 Y112.999 E35.08560
G1 X102.774 Y113.274 E35.12674
G1 X102.499 Y113.633 E35.16789
G1 X102.277 Y114.170 E35.22070
G1 X101.975 Y114.110 E35.24868
G1 X101.975 Y55.890 E40.54258
G1 X102.218 Y55.842 E40.56510
G1 E38.56510 F2400.00000
G92 E0
G1 X139.897 Y55.500 F7800.000
G1 E2.00000 F2400.00000
G1 F1800
G1 X139.935 Y55.215 E2.02618
G1 X140.034 Y54.974 E2.04985
G1 X140.216 Y54.723 E2.07805
G1 X140.448 Y54.545 E2.10467
G1 X140.715 Y54.435 E2.13085
G1 X140.973 Y54.401 E2.15452
G1 X141.281 Y54.433 E2.18272
G1 X141.552 Y54.545 E2.20934
G1 X141.780 Y54.720 E2.23553
G1 X141.955 Y54.948 E2.26171
G1 X142.065 Y55.215 E2.28789
G1 X142.103 Y55.500 E2.31407
G1 X142.065 Y55.785 E2.34026
G1 X141.966 Y56.026 E2.36392
G1 X141.784 Y56.277 E2.39212
G1 X141.552 Y56.455 E2.41874
G1 X141.311 Y56.555 E2.44241
G1 X141.005 Y56.604 E2.47061
G1 X140.715 Y56.565 E2.49723
G1 X140.448 Y56.455 E2.52341
G1 X140.220 Y56.280 E2.54960
G1 X140.045 Y56.052 E2.57578
G1 X139.935 Y55.785 E2.60196
G1 X139.905 Y55.559 E2.62269
G1 X139.897 Y55.500 F7800.000
G1 E0.62269 F2400.00000
G92 E0
G1 X141.330 Y53.777 F7800.000
G1 E2.00000 F2400.00000
G1 F1800
G1 X141.390 Y53.475 E2.02798
G1 X141.952 Y53.475 E2.07908
G1 X142.164 Y53.496 E2.09840
G1 X142.399 Y53.562 E2.12067
G1 X142.567 Y53.652 E2.13795
G1 X142.722 Y53.778 E2.15613
G1 X142.848 Y53.933 E2.17432
G1 X142.943 Y54.110 E2.19251
G1 X143.001 Y54.301 E2.21070
G1 X143.025 Y54.548 E2.23327
G1 X143.025 Y55.110 E2.28437
G1 X142.723 Y55.170 E2.31235
G1 X142.501 Y54.633 E2.36515
G1 X142.226 Y54.274 E2.40630
G1 X141.867 Y53.999 E2.44745
G1 X141.386 Y53.800 E2.49480
G1 X141.330 Y52.850 F7800.000
G1 F1800
G1 X141.983 Y52.850 E2.55415
G1 X142.280 Y52.879 E2.58127
G1 X142.634 Y52.979 E2.61474
G1 X142.916 Y53.129 E2.64379
G1 X143.166 Y53.334 E2.67317
G1 X143.371 Y53.584 E2.70255
G1 X143.523 Y53.869 E2.73193
G1 X143.617 Y54.178 E2.76132
G1 X143.650 Y54.517 E2.79227
G1 X143.650 Y115.483 E8.33585
G1 X143.617 Y115.822 E8.36680
G1 X143.523 Y116.131 E8.39618
G1 X143.371 Y116.416 E8.42556
G1 X143.166 Y116.666 E8.45494
G1 X142.916 Y116.871 E8.48433
G1 X142.631 Y117.023 E8.51371
G1 X142.322 Y117.117 E8.54309
G1 X141.983 Y117.150 E8.57404
G1 X103.017 Y117.150 E12.11717
G1 X102.678 Y117.117 E12.14812
G1 X102.369 Y117.023 E12.17750
G1 X102.084 Y116.871 E12.20688
G1 X101.834 Y116.666 E12.23627
G1 X101.629 Y116.416 E12.26565
G1 X101.477 Y116.131 E12.29503
G1 X101.396 Y115.862 E12.32058
G1 X101.350 Y115.479 E12.35562
G1 X101.350 Y54.517 E17.89887
G1 X101.383 Y54.178 E17.92983
G1 X101.477 Y53.869 E17.95921
G1 X101.629 Y53.584 E17.98859
G1 X101.834 Y53.334 E18.01797
G1 X102.084 Y53.129 E18.04735
G1 X102.369 Y52.977 E18.07673
G1 X102.638 Y52.896 E18.10228
G1 X103.021 Y52.850 E18.13733
G1 X141.270 Y52.850 E21.61532
G1 X141.530 Y53.196 F7800.000
G1 X141.000 Y53.162 F7800.000
G1 F1800
G1 X141.000 Y53.495 E21.62231
G1 F1800
G1 X141.000 Y53.661 E21.62361
G1 X140.903 Y54.058 F7800.000
G1 F1800
G1 X141.000 Y54.036 E21.62407
G1 X141.116 Y54.065 E21.62462
G1 X139.640 Y53.787 F7800.000
G1 F1800
G1 X139.365 Y54.237 E21.62950
G1 E19.62950 F2400.00000
G92 E0
G1 X142.442 Y55.403 F7800.000
G1 E2.00000 F2400.00000
G1 F1800
G1 X142.468 Y55.500 E2.00033
G1 X142.442 Y55.597 E2.00065
G1 X142.839 Y55.500 F7800.000
G1 F1800
G1 X143.005 Y55.500 E2.00196
G1 F1800
G1 X143.338 Y55.500 E2.00894
G1 X142.713 Y56.855 F7800.000
G1 F1800
G1 X142.267 Y57.134 E2.01501
G1 E0.01501 F2400.00000
G92 E0
G1 X105.634 Y54.233 F7800.000
G1 E2.00000 F2400.00000
G1 F1800
G1 X105.356 Y53.787 E2.00285
G1 X104.116 Y54.065 F7800.000
G1 F1800
G1 X104.000 Y54.036 E2.00340
G1 X103.903 Y54.058 E2.00385
G1 X104.000 Y53.661 F7800.000
G1 F1800
G1 X104.000 Y53.495 E2.00516
G1 F1800
G1 X104.000 Y53.162 E2.01215
G1 E0.01215 F2400.00000
G92 E0
G1 X102.558 Y55.403 F7800.000
G1 E2.00000 F2400.00000
G1 F1800
G1 X102.532 Y55.500 E2.00033
G1 X102.558 Y55.597 E2.00065
G1 X102.161 Y55.500 F7800.000
G1 F1800
G1 X101.829 Y55.500 E2.00327
G1 F1800
G1 X101.662 Y55.500 E2.00676
G1 X102.287 Y56.856 F7800.000
G1 F1800
G1 X102.733 Y57.134 E2.00961
G1 X103.468 Y58.149 F7800.000
G1 F1800
G1 X102.982 Y58.635 E2.07264
G1 X102.982 Y59.526 E2.15431
G1 X104.259 Y58.249 E2.31987
G1 X105.018 Y58.149 E2.39007
G1 X105.413 Y57.985 E2.42931
G1 X102.982 Y60.417 E2.74457
G1 E0.74457 F2400.00000
G92 E0
G1 X106.649 Y54.968 F7800.000
G1 E2.00000 F2400.00000
G1 F1800
G1 X107.135 Y54.482 E2.06301
G1 X108.026 Y54.482 E2.14469
G1 X106.749 Y55.759 E2.31024
G1 X106.649 Y56.518 E2.38045
G1 X106.485 Y56.913 E2.41969
G1 X108.917 Y54.482 E2.73494
G1 X109.808 Y54.482 E2.81662
G1 X102.982 Y61.308 E3.70157
G1 X102.982 Y62.199 E3.78325
G1 X110.699 Y54.482 E4.78371
G1 X111.590 Y54.482 E4.86538
G1 X102.982 Y63.090 E5.98134
G1 X102.982 Y63.980 E6.06302
G1 X112.480 Y54.482 E7.29449
G1 X113.371 Y54.482 E7.37616
G1 X102.982 Y64.871 E8.72314
G1 X102.982 Y65.762 E8.80481
G1 X114.262 Y54.482 E10.26729
G1 X115.153 Y54.482 E10.34897
G1 X102.982 Y66.653 E11.92695
G1 X102.982 Y67.544 E12.00863
G1 X116.044 Y54.482 E13.70212
G1 X116.935 Y54.482 E13.78379
G1 X102.982 Y68.435 E15.59279
G1 X102.982 Y69.326 E15.67447
G1 X117.826 Y54.482 E17.59897
G1 X118.717 Y54.482 E17.68064
G1 X102.982 Y70.217 E19.72065
G1 X102.982 Y71.108 E19.80232
G1 X119.608 Y54.482 E21.95784
G1 X120.499 Y54.482 E22.03951
G1 X102.982 Y71.999 E24.31053
G1 X102.982 Y72.890 E24.39220
G1 X121.390 Y54.482 E26.77873
G1 X122.281 Y54.482 E26.86040
G1 X102.982 Y73.781 E29.36243
G1 X102.982 Y74.672 E29.44410
G1 X123.172 Y54.482 E32.06164
G1 X124.063 Y54.482 E32.14331
G1 X102.982 Y75.563 E34.87635
G1 X102.982 Y76.454 E34.95803
G1 X124.954 Y54.482 E37.80657
G1 X125.845 Y54.482 E37.88825
