;FLAVOR:Marlin
;TIME:12040
;Filament used: 7.3426m
;Layer height: 0.2
;MINX:76.963
;MINY:65.96
;MINZ:0.2
;MAXX:143.043
;MAXY:154.04
;MAXZ:36.4
;Generated with Cura_SteamEngine 4.2.1
M140 S50
M105
M190 S50
M104 S200
M105
M109 S200
M82 ;absolute extrusion mode
M201 X500.00 Y500.00 Z100.00 E5000.00 ;Setup machine max acceleration
M203 X500.00 Y500.00 Z10.00 E50.00 ;Setup machine max feedrate
M204 P500.00 R1000.00 T500.00 ;Setup Print/Retract/Travel acceleration
M205 X8.00 Y8.00 Z0.40 E5.00 ;Setup Jerk
M220 S100 ;Reset Feedrate
M221 S100 ;Reset Flowrate

G28 ;Home

G92 E0 ;Reset Extruder
G1 Z2.0 F3000 ;Move Z Axis up
G1 X10.1 Y20 Z0.28 F5000.0 ;Move to start position
G1 X10.1 Y200.0 Z0.28 F1500.0 E15 ;Draw the first line
G1 X10.4 Y200.0 Z0.28 F5000.0 ;Move to side a little
G1 X10.4 Y20 Z0.28 F1500.0 E30 ;Draw the second line
G92 E0 ;Reset Extruder
G1 Z2.0 F3000 ;Move Z Axis up

M141 S28
G92 E0
G92 E0
G1 F1500 E-6
;LAYER_COUNT:182
;LAYER:0
M107
G0 F6000 X80.42 Y70.491 Z0.2
;TYPE:SKIRT
G1 F1500 E0
G1 F1200 X80.585 Y70.311 E0.00893
G1 X81.037 Y69.845 E0.03269
G1 X81.195 Y69.691 E0.04076
G1 X81.91 Y69.05 E0.07589
G1 X83.063 Y68.214 E0.128
G1 X83.444 Y67.972 E0.14451
G1 X84.275 Y67.491 E0.17964
G1 X85.144 Y67.081 E0.21479
G1 X85.785 Y66.833 E0.23994
G1 X86.215 Y66.681 E0.25662
G1 X87.133 Y66.399 E0.29176
G1 X88.072 Y66.194 E0.32692
G1 X88.705 Y66.101 E0.35033
G1 X89.119 Y66.052 E0.36558
G1 X90.147 Y65.977 E0.40329
G1 X90.569 Y65.965 E0.41874
G1 X90.897 Y65.96 E0.43074
G1 X128.796 Y65.96 E1.81732
G1 X128.961 Y65.961 E1.82336
G1 X129.659 Y65.971 E1.8489
G1 X130.723 Y66.036 E1.8879
G1 X131.171 Y66.084 E1.90438
G1 X132.121 Y66.226 E1.93952
G1 X133.056 Y66.446 E1.97467
G1 X133.632 Y66.624 E1.99672
G1 X133.875 Y66.706 E2.00611
G1 X134.206 Y66.823 E2.01895
G1 X134.397 Y66.894 E2.0264
G1 X135.283 Y67.266 E2.06156
G1 X136.515 Y67.94 E2.11294
G1 X136.854 Y68.153 E2.12759
G1 X137.646 Y68.697 E2.16274
G1 X138.53 Y69.433 E2.20482
G1 X138.706 Y69.595 E2.21358
G1 X139.124 Y70 E2.23487
G1 X139.289 Y70.168 E2.24349
G1 X139.933 Y70.881 E2.27864
G1 X140.782 Y72.044 E2.33132
G1 X140.918 Y72.257 E2.34056
G1 X141.416 Y73.115 E2.37686
G1 X141.561 Y73.392 E2.3883
G1 X141.971 Y74.261 E2.42345
G1 X142.274 Y75.062 E2.45478
G1 X142.375 Y75.362 E2.46637
G1 X142.643 Y76.284 E2.50149
G1 X142.892 Y77.64 E2.55193
G1 X142.943 Y78.056 E2.56727
G1 X143.027 Y79.271 E2.61183
G1 X143.04 Y80.063 E2.64081
G1 X143.042 Y80.252 E2.64772
G1 X143.043 Y139.792 E4.82606
G1 X143.042 Y139.957 E4.8321
G1 X143.032 Y140.658 E4.85775
G1 X142.967 Y141.728 E4.89697
G1 X142.919 Y142.174 E4.91338
G1 X142.776 Y143.124 E4.94853
G1 X142.555 Y144.059 E4.98368
G1 X142.388 Y144.602 E5.00446
G1 X142.309 Y144.838 E5.01357
G1 X142.187 Y145.185 E5.02702
G1 X142.114 Y145.382 E5.03471
G1 X141.743 Y146.268 E5.06985
G1 X141.066 Y147.509 E5.12157
G1 X140.855 Y147.845 E5.13609
G1 X140.311 Y148.637 E5.17124
G1 X139.593 Y149.502 E5.21237
G1 X139.43 Y149.68 E5.2212
G1 X138.977 Y150.147 E5.24501
G1 X138.814 Y150.306 E5.25334
G1 X138.099 Y150.947 E5.28847
G1 X136.952 Y151.781 E5.34035
G1 X136.578 Y152.019 E5.35657
G1 X135.746 Y152.5 E5.39173
G1 X134.878 Y152.911 E5.42687
G1 X134.26 Y153.152 E5.45114
G1 X133.834 Y153.304 E5.46769
G1 X132.917 Y153.589 E5.50282
G1 X131.979 Y153.796 E5.53796
G1 X131.377 Y153.887 E5.56024
G1 X130.95 Y153.94 E5.57598
G1 X129.731 Y154.026 E5.62069
G1 X129.044 Y154.038 E5.64583
G1 X128.842 Y154.04 E5.65322
G1 X91.21 Y154.04 E7.03003
G1 X91.045 Y154.039 E7.03607
G1 X90.347 Y154.029 E7.0616
G1 X89.283 Y153.964 E7.10061
G1 X88.835 Y153.916 E7.11709
G1 X87.885 Y153.774 E7.15223
G1 X86.95 Y153.554 E7.18737
G1 X86.374 Y153.376 E7.20943
G1 X86.131 Y153.294 E7.21881
G1 X85.769 Y153.165 E7.23287
G1 X85.577 Y153.093 E7.24038
G1 X84.692 Y152.719 E7.27553
G1 X83.497 Y152.064 E7.32539
G1 X83.159 Y151.852 E7.33998
G1 X82.367 Y151.308 E7.37514
G1 X81.433 Y150.528 E7.41966
G1 X81.248 Y150.356 E7.4289
G1 X80.842 Y149.959 E7.44967
G1 X80.688 Y149.801 E7.45775
G1 X80.047 Y149.086 E7.49288
G1 X79.467 Y148.319 E7.52806
G1 X79.197 Y147.911 E7.54596
G1 X78.96 Y147.536 E7.56219
G1 X78.481 Y146.704 E7.59731
G1 X78.073 Y145.834 E7.63247
G1 X77.829 Y145.199 E7.65736
G1 X77.682 Y144.781 E7.67357
G1 X77.401 Y143.863 E7.70869
G1 X77.198 Y142.924 E7.74384
G1 X77.113 Y142.351 E7.76503
G1 X77.061 Y141.925 E7.78074
G1 X76.978 Y140.72 E7.82493
G1 X76.965 Y139.941 E7.85343
G1 X76.963 Y139.748 E7.86049
G1 X76.963 Y80.207 E10.03887
G1 X76.964 Y80.042 E10.04491
G1 X76.974 Y79.344 E10.07045
G1 X77.041 Y78.263 E10.11007
G1 X77.09 Y77.812 E10.12667
G1 X77.233 Y76.862 E10.16182
G1 X77.455 Y75.927 E10.19698
G1 X77.623 Y75.382 E10.21784
G1 X77.704 Y75.141 E10.22714
G1 X77.849 Y74.734 E10.24295
G1 X77.922 Y74.541 E10.2505
G1 X78.299 Y73.658 E10.28563
G1 X78.951 Y72.474 E10.33508
G1 X79.162 Y72.139 E10.34956
G1 X79.708 Y71.348 E10.38473
G1 X80.42 Y70.491 E10.42549
G0 F6000 X80.745 Y70.788
G1 F1200 X80.91 Y70.608 E10.43442
G1 X81.344 Y70.16 E10.45725
G1 X81.502 Y70.006 E10.46532
G1 X82.204 Y69.378 E10.49978
G1 X83.299 Y68.585 E10.54924
G1 X83.68 Y68.343 E10.56576
G1 X84.496 Y67.872 E10.60023
G1 X85.349 Y67.472 E10.6347
G1 X85.932 Y67.248 E10.65755
G1 X86.362 Y67.096 E10.67423
G1 X87.262 Y66.82 E10.70867
G1 X88.183 Y66.621 E10.74315
G1 X88.756 Y66.538 E10.76433
G1 X89.17 Y66.489 E10.77958
G1 X90.159 Y66.416 E10.81586
G1 X90.581 Y66.404 E10.83131
G1 X90.897 Y66.4 E10.84287
G1 X128.796 Y66.4 E12.22945
G1 X128.955 Y66.401 E12.23527
G1 X129.653 Y66.411 E12.26081
G1 X130.677 Y66.473 E12.29834
G1 X131.125 Y66.521 E12.31482
G1 X132.056 Y66.661 E12.34927
G1 X132.973 Y66.88 E12.38376
G1 X133.491 Y67.041 E12.40361
G1 X133.734 Y67.123 E12.41299
G1 X134.053 Y67.236 E12.42537
G1 X134.244 Y67.307 E12.43283
G1 X135.112 Y67.672 E12.46728
G1 X136.281 Y68.312 E12.51604
G1 X136.62 Y68.525 E12.53068
G1 X137.396 Y69.06 E12.56517
G1 X138.232 Y69.757 E12.60499
G1 X138.408 Y69.919 E12.61374
G1 X138.81 Y70.308 E12.63421
G1 X138.975 Y70.476 E12.64282
G1 X139.606 Y71.176 E12.6773
G1 X140.412 Y72.28 E12.72731
G1 X140.548 Y72.493 E12.73656
G1 X141.026 Y73.319 E12.77147
G1 X141.171 Y73.596 E12.78291
G1 X141.572 Y74.449 E12.8174
G1 X141.857 Y75.202 E12.84685
G1 X141.958 Y75.502 E12.85844
G1 X142.22 Y76.407 E12.89291
G1 X142.456 Y77.693 E12.94074
G1 X142.507 Y78.109 E12.95607
G1 X142.588 Y79.278 E12.99895
G1 X142.601 Y80.07 E13.02793
G1 X142.602 Y80.252 E13.03459
G1 X142.603 Y139.792 E15.21292
G1 X142.602 Y139.95 E15.21871
G1 X142.592 Y140.651 E15.24435
G1 X142.529 Y141.681 E15.28211
G1 X142.481 Y142.127 E15.29852
G1 X142.341 Y143.058 E15.33297
G1 X142.122 Y143.975 E15.36746
G1 X141.971 Y144.463 E15.38615
G1 X141.892 Y144.699 E15.39525
G1 X141.774 Y145.032 E15.40818
G1 X141.701 Y145.229 E15.41586
G1 X141.337 Y146.098 E15.45033
G1 X140.693 Y147.275 E15.49942
G1 X140.482 Y147.611 E15.51394
G1 X139.948 Y148.387 E15.5484
G1 X139.268 Y149.204 E15.58729
G1 X139.105 Y149.382 E15.59612
G1 X138.67 Y149.832 E15.61902
G1 X138.507 Y149.991 E15.62735
G1 X137.805 Y150.619 E15.66181
G1 X136.715 Y151.41 E15.71108
G1 X136.341 Y151.648 E15.7273
G1 X135.526 Y152.119 E15.76174
G1 X134.673 Y152.52 E15.79623
G1 X134.112 Y152.737 E15.81823
G1 X133.686 Y152.889 E15.83478
G1 X132.786 Y153.168 E15.86925
G1 X131.866 Y153.369 E15.90371
G1 X131.323 Y153.45 E15.92379
G1 X130.896 Y153.503 E15.93954
G1 X129.723 Y153.586 E15.98256
G1 X129.036 Y153.598 E16.0077
G1 X128.842 Y153.6 E16.01479
G1 X91.21 Y153.6 E17.3916
G1 X91.051 Y153.599 E17.39742
G1 X90.353 Y153.589 E17.42296
G1 X89.329 Y153.527 E17.46049
G1 X88.881 Y153.479 E17.47698
G1 X87.95 Y153.339 E17.51142
G1 X87.033 Y153.12 E17.54592
G1 X86.515 Y152.959 E17.56576
G1 X86.272 Y152.877 E17.57515
G1 X85.924 Y152.753 E17.58866
G1 X85.732 Y152.681 E17.59616
G1 X84.864 Y152.313 E17.63066
G1 X83.731 Y151.691 E17.67794
G1 X83.393 Y151.479 E17.69254
G1 X82.617 Y150.945 E17.72701
G1 X81.733 Y150.205 E17.76918
G1 X81.548 Y150.033 E17.77843
G1 X81.157 Y149.652 E17.7984
G1 X81.003 Y149.494 E17.80647
G1 X80.375 Y148.792 E17.84093
G1 X79.569 Y147.676 E17.8913
G1 X79.332 Y147.301 E17.90753
G1 X78.863 Y146.484 E17.94199
G1 X78.465 Y145.63 E17.97646
G1 X78.244 Y145.054 E17.99904
G1 X78.097 Y144.636 E18.01525
G1 X77.822 Y143.734 E18.04975
G1 X77.625 Y142.813 E18.08421
G1 X77.55 Y142.298 E18.10325
G1 X77.498 Y141.872 E18.11895
G1 X77.418 Y140.712 E18.16149
G1 X77.405 Y139.933 E18.18999
G1 X77.403 Y139.748 E18.19676
G1 X77.403 Y80.207 E20.37514
G1 X77.404 Y80.048 E20.38095
G1 X77.414 Y79.35 E20.40649
G1 X77.478 Y78.31 E20.44462
G1 X77.527 Y77.859 E20.46121
G1 X77.668 Y76.928 E20.49566
G1 X77.888 Y76.012 E20.53013
G1 X78.04 Y75.522 E20.5489
G1 X78.121 Y75.281 E20.5582
G1 X78.261 Y74.89 E20.5734
G1 X78.334 Y74.697 E20.58095
G1 X78.704 Y73.831 E20.6154
G1 X79.324 Y72.708 E20.66233
G1 X79.535 Y72.373 E20.67682
G1 X80.07 Y71.598 E20.71127
G1 X80.745 Y70.788 E20.74985
G0 F6000 X81.069 Y71.086
G1 F1200 X81.234 Y70.906 E20.75878
G1 X81.651 Y70.475 E20.78072
G1 X81.809 Y70.321 E20.78879
G1 X82.498 Y69.706 E20.82258
G1 X83.535 Y68.957 E20.86938
G1 X83.916 Y68.715 E20.8859
G1 X84.716 Y68.254 E20.91968
G1 X85.553 Y67.864 E20.95346
G1 X86.078 Y67.662 E20.97404
G1 X86.508 Y67.51 E20.99073
G1 X87.391 Y67.241 E21.0245
G1 X88.294 Y67.048 E21.05828
G1 X88.808 Y66.975 E21.07728
G1 X89.222 Y66.926 E21.09253
G1 X90.172 Y66.856 E21.12738
G1 X90.594 Y66.844 E21.14283
G1 X90.897 Y66.84 E21.15391
G1 X128.796 Y66.84 E22.54049
G1 X128.949 Y66.841 E22.54609
G1 X129.647 Y66.851 E22.57163
G1 X130.63 Y66.911 E22.60766
G1 X131.078 Y66.959 E22.62414
G1 X131.991 Y67.097 E22.65793
G1 X132.888 Y67.313 E22.69168
G1 X133.35 Y67.458 E22.7094
G1 X133.593 Y67.54 E22.71878
G1 X133.899 Y67.648 E22.73065
G1 X134.09 Y67.719 E22.73811
G1 X134.941 Y68.078 E22.7719
G1 X136.047 Y68.685 E22.81806
G1 X136.386 Y68.898 E22.83271
G1 X137.146 Y69.422 E22.86648
G1 X137.934 Y70.081 E22.90406
G1 X138.11 Y70.243 E22.91281
G1 X138.496 Y70.616 E22.93245
G1 X138.661 Y70.784 E22.94107
G1 X139.279 Y71.471 E22.97488
G1 X140.041 Y72.517 E23.02222
G1 X140.177 Y72.73 E23.03147
G1 X140.636 Y73.523 E23.06499
G1 X140.781 Y73.8 E23.07643
G1 X141.174 Y74.636 E23.11023
G1 X141.44 Y75.343 E23.13786
G1 X141.541 Y75.643 E23.14945
G1 X141.797 Y76.53 E23.18322
G1 X142.019 Y77.747 E23.22848
G1 X142.07 Y78.163 E23.24382
G1 X142.148 Y79.285 E23.28496
G1 X142.161 Y80.077 E23.31394
G1 X142.162 Y80.252 E23.32035
G1 X142.163 Y139.792 E25.49869
G1 X142.162 Y139.944 E25.50425
G1 X142.152 Y140.645 E25.5299
G1 X142.092 Y141.634 E25.56615
G1 X142.044 Y142.08 E25.58256
G1 X141.905 Y142.992 E25.61631
G1 X141.554 Y144.323 E25.66667
G1 X141.475 Y144.559 E25.67578
G1 X141.362 Y144.879 E25.68819
G1 X141.289 Y145.076 E25.69588
G1 X140.931 Y145.927 E25.72966
G1 X140.321 Y147.041 E25.77612
G1 X140.11 Y147.377 E25.79064
G1 X139.585 Y148.137 E25.82444
G1 X138.944 Y148.907 E25.86109
G1 X138.781 Y149.085 E25.86992
G1 X138.363 Y149.517 E25.89191
G1 X138.2 Y149.676 E25.90024
G1 X137.511 Y150.291 E25.93403
G1 X136.479 Y151.038 E25.98064
G1 X136.105 Y151.276 E25.99686
G1 X135.305 Y151.738 E26.03066
G1 X134.469 Y152.128 E26.06441
G1 X133.964 Y152.323 E26.08422
G1 X133.538 Y152.475 E26.10077
G1 X132.656 Y152.747 E26.13453
G1 X131.754 Y152.942 E26.1683
G1 X131.269 Y153.014 E26.18624
G1 X130.842 Y153.067 E26.20198
G1 X129.715 Y153.146 E26.24331
G1 X129.028 Y153.158 E26.26845
G1 X128.842 Y153.16 E26.27526
G1 X91.21 Y153.16 E27.65207
G1 X91.057 Y153.159 E27.65766
G1 X90.359 Y153.149 E27.6832
G1 X89.376 Y153.089 E27.71923
G1 X88.928 Y153.041 E27.73572
G1 X88.015 Y152.903 E27.7695
G1 X87.118 Y152.687 E27.80326
G1 X86.656 Y152.542 E27.82097
G1 X86.413 Y152.46 E27.83036
G1 X86.078 Y152.341 E27.84336
G1 X85.886 Y152.269 E27.85086
G1 X85.036 Y151.908 E27.88465
G1 X83.965 Y151.319 E27.92937
G1 X83.627 Y151.107 E27.94397
G1 X82.867 Y150.583 E27.97774
G1 X82.033 Y149.883 E28.01758
G1 X81.848 Y149.711 E28.02682
G1 X81.472 Y149.345 E28.04602
G1 X81.318 Y149.187 E28.05409
G1 X80.703 Y148.498 E28.08788
G1 X79.941 Y147.441 E28.13555
G1 X79.704 Y147.066 E28.15178
G1 X79.245 Y146.265 E28.18556
G1 X78.857 Y145.427 E28.21934
G1 X78.659 Y144.908 E28.23967
G1 X78.512 Y144.49 E28.25588
G1 X78.243 Y143.606 E28.28968
G1 X78.053 Y142.703 E28.32344
G1 X77.987 Y142.245 E28.34037
G1 X77.935 Y141.819 E28.35608
G1 X77.857 Y140.705 E28.39693
G1 X77.844 Y139.926 E28.42544
G1 X77.843 Y139.748 E28.43195
G1 X77.843 Y80.207 E30.61033
G1 X77.844 Y80.054 E30.61592
G1 X77.854 Y79.356 E30.64146
G1 X77.915 Y78.358 E30.67804
G1 X77.964 Y77.907 E30.69464
G1 X78.104 Y76.994 E30.72843
G1 X78.457 Y75.662 E30.77885
G1 X78.538 Y75.421 E30.78815
G1 X78.672 Y75.046 E30.80272
G1 X78.745 Y74.853 E30.81027
G1 X79.109 Y74.004 E30.84407
G1 X79.696 Y72.943 E30.88843
G1 X79.907 Y72.608 E30.90291
G1 X80.432 Y71.849 E30.93668
G1 X81.069 Y71.086 E30.97304
G0 F6000 X81.393 Y71.383
G1 F1200 X81.558 Y71.203 E30.98198
G1 X81.959 Y70.79 E31.00304
G1 X82.117 Y70.636 E31.01111
G1 X82.791 Y70.035 E31.04415
G1 X83.77 Y69.328 E31.08833
G1 X84.151 Y69.086 E31.10484
G1 X84.935 Y68.636 E31.13792
G1 X85.756 Y68.256 E31.17102
G1 X86.225 Y68.077 E31.18938
G1 X86.655 Y67.925 E31.20607
G1 X87.52 Y67.662 E31.23914
G1 X88.404 Y67.476 E31.2722
G1 X88.86 Y67.412 E31.28904
G1 X89.274 Y67.363 E31.30429
G1 X90.185 Y67.296 E31.33771
G1 X90.607 Y67.284 E31.35316
G1 X90.897 Y67.28 E31.36377
G1 X128.796 Y67.28 E32.75035
G1 X128.942 Y67.281 E32.75569
G1 X129.64 Y67.291 E32.78123
G1 X130.583 Y67.348 E32.81579
G1 X131.031 Y67.396 E32.83228
G1 X131.924 Y67.532 E32.86533
G1 X133.21 Y67.874 E32.91401
G1 X133.453 Y67.956 E32.9234
G1 X133.746 Y68.06 E32.93477
G1 X133.937 Y68.131 E32.94223
G1 X134.77 Y68.484 E32.97533
G1 X135.813 Y69.057 E33.01886
G1 X136.152 Y69.27 E33.03351
G1 X136.896 Y69.785 E33.06662
G1 X137.636 Y70.404 E33.10191
G1 X137.812 Y70.566 E33.11067
G1 X138.182 Y70.925 E33.12953
G1 X138.347 Y71.093 E33.13814
G1 X138.952 Y71.765 E33.17122
G1 X139.67 Y72.754 E33.21594
G1 X139.806 Y72.967 E33.22518
G1 X140.246 Y73.727 E33.25731
G1 X140.391 Y74.004 E33.26875
G1 X140.775 Y74.823 E33.30185
G1 X141.023 Y75.483 E33.32764
G1 X141.124 Y75.783 E33.33922
G1 X141.374 Y76.652 E33.3723
G1 X141.582 Y77.8 E33.41499
G1 X141.633 Y78.216 E33.43032
G1 X141.708 Y79.292 E33.46979
G1 X141.721 Y80.084 E33.49877
G1 X141.722 Y80.252 E33.50491
G1 X141.723 Y139.792 E35.68325
G1 X141.722 Y139.938 E35.68859
G1 X141.712 Y140.639 E35.71424
G1 X141.654 Y141.587 E35.74899
G1 X141.606 Y142.033 E35.7654
G1 X141.47 Y142.926 E35.79845
G1 X141.136 Y144.183 E35.84604
G1 X141.057 Y144.419 E35.85514
G1 X140.949 Y144.726 E35.86705
G1 X140.876 Y144.923 E35.87473
G1 X140.525 Y145.756 E35.90781
G1 X139.948 Y146.807 E35.95167
G1 X139.737 Y147.143 E35.96619
G1 X139.223 Y147.887 E35.99927
G1 X138.619 Y148.61 E36.03374
G1 X138.456 Y148.788 E36.04257
G1 X138.055 Y149.202 E36.06366
G1 X137.892 Y149.361 E36.07199
G1 X137.218 Y149.963 E36.10505
G1 X136.243 Y150.667 E36.14905
G1 X135.869 Y150.905 E36.16527
G1 X135.085 Y151.356 E36.19836
G1 X134.265 Y151.736 E36.23142
G1 X133.816 Y151.909 E36.24903
G1 X133.39 Y152.061 E36.26558
G1 X132.526 Y152.326 E36.29864
G1 X131.215 Y152.577 E36.34748
G1 X130.788 Y152.63 E36.36322
G1 X129.707 Y152.706 E36.40287
G1 X129.02 Y152.718 E36.428
G1 X128.842 Y152.72 E36.43452
G1 X91.21 Y152.72 E37.81133
G1 X91.064 Y152.719 E37.81667
G1 X90.366 Y152.709 E37.84221
G1 X89.423 Y152.652 E37.87677
G1 X88.975 Y152.604 E37.89326
G1 X88.082 Y152.468 E37.9263
G1 X86.796 Y152.126 E37.97499
G1 X86.553 Y152.044 E37.98437
G1 X86.233 Y151.929 E37.99681
G1 X86.041 Y151.857 E38.00432
G1 X85.209 Y151.503 E38.0374
G1 X84.199 Y150.946 E38.07959
G1 X83.861 Y150.734 E38.09419
G1 X83.117 Y150.22 E38.12728
G1 X82.332 Y149.561 E38.16477
G1 X82.147 Y149.389 E38.17402
G1 X81.787 Y149.037 E38.19244
G1 X81.633 Y148.879 E38.20051
G1 X81.032 Y148.205 E38.23355
G1 X80.313 Y147.206 E38.27858
G1 X80.076 Y146.831 E38.29481
G1 X79.627 Y146.046 E38.3279
G1 X79.249 Y145.225 E38.36096
G1 X79.074 Y144.762 E38.37907
G1 X78.927 Y144.344 E38.39528
G1 X78.665 Y143.478 E38.42839
G1 X78.423 Y142.191 E38.4763
G1 X78.371 Y141.765 E38.492
G1 X78.297 Y140.698 E38.53113
